(.../pcb-gcode-3.6.0.4/pcb-gcode.ulp)
(Copyright 2005 - 2012 by John Johnson)
(See readme.txt for licensing terms.)
(This file generated from the board:)
(.../Relaya_the second Version 2.brd)
(Current profile is .../pcb-gcode-3.6.0.4/profiles/generic.pp  )
(This file generated 21/11/2021 11:29)
(Settings from pcb-machine.h)
(  Tool Size)
(0.1000 )
(Z Axis Settings)
(  High     Up        Down     Drill)
(12.7000 	2.4000 	-0.1000 	-1.7000 )
(spindle on time = 3.0000)
(milling depth = -0.2540)
(text depth = -0.1270)
(tool change at 0.0000 -12.0000 20.0000 )
(feed rate xy = F100.00 )
(feed rate z  = F50.00 )
(Settings from pcb-defaults.h)
(isolate min = 0.0254)
(isolate max = 0.0508)
(isolate step = 0.0766)
(Generated top outlines, top drill, bottom drill, )
(Unit of measure: mm)
( Tool|       Size       |  Min Sub |  Max Sub |   Count )
( T01  4.000mm 0.1575in 0.0000in 0.0000in )
( T02  0.762mm 0.0300in 0.0000in 0.0000in )
( T03  0.813mm 0.0320in 0.0000in 0.0000in )
( T04  0.900mm 0.0354in 0.0000in 0.0000in )
( T05  1.016mm 0.0400in 0.0000in 0.0000in )
( T06  1.118mm 0.0440in 0.0000in 0.0000in )
( T07  1.200mm 0.0472in 0.0000in 0.0000in )
( T08  1.400mm 0.0551in 0.0000in 0.0000in )
(Metric Mode)
G21
(Absolute Coordinates)
G90
M05
G00 Z20.0000 
G00 X0.0000 Y-12.0000 
M06 T01  ; 4.0000 
G01 Z0.0000 F50.00 
M06 T01  ; 4.0000 
G00 Z2.4000 
M03
G04 P3.000000
G00 Z2.400000
G00 X-4.7700 Y3.9400 
G01 Z-1.7000 F50.00 
G01 Z2.400000
(R2.4000  P1.000000)
(G00 Z2.400000)
G00 X-4.7700 Y71.9400 
G01 Z-1.700000
G01 Z2.400000
(G00 Z2.400000)
G00 X-72.7700 Y37.9400 
G01 Z-1.700000
G01 Z2.400000
M05
G00 Z20.0000 
M06 T02  ; 0.7620 
G01 Z0.0000 F50.00 
M06 T02  ; 0.7620 
G00 Z2.4000 
M03
G04 P3.000000
G00 Z2.400000
G00 X-33.5000 Y36.0000 
G01 Z-1.7000 F50.00 
G01 Z2.400000
(R2.4000  P1.000000)
(G00 Z2.400000)
G00 X-14.5000 Y73.0000 
G01 Z-1.700000
G01 Z2.400000
(G00 Z2.400000)
G00 X-16.0000 Y45.0000 
G01 Z-1.700000
G01 Z2.400000
(G00 Z2.400000)
G00 X-19.0000 Y2.5000 
G01 Z-1.700000
G01 Z2.400000
M05
G00 Z20.0000 
M06 T03  ; 0.8128 
G01 Z0.0000 F50.00 
M06 T03  ; 0.8128 
G00 Z2.4000 
M03
G04 P3.000000
G00 Z2.400000
G00 X-39.0800 Y53.0000 
G01 Z-1.7000 F50.00 
G01 Z2.400000
(R2.4000  P1.000000)
(G00 Z2.400000)
G00 X-40.0800 Y60.0000 
G01 Z-1.700000
G01 Z2.400000
(G00 Z2.400000)
G00 X-43.2300 Y52.0000 
G01 Z-1.700000
G01 Z2.400000
(G00 Z2.400000)
G00 X-43.7300 Y60.5000 
G01 Z-1.700000
G01 Z2.400000
(G00 Z2.400000)
G00 X-44.5000 Y53.9050 
G01 Z-1.700000
G01 Z2.400000
(G00 Z2.400000)
G00 X-45.0000 Y62.4050 
G01 Z-1.700000
G01 Z2.400000
(G00 Z2.400000)
G00 X-45.7700 Y52.0000 
G01 Z-1.700000
G01 Z2.400000
(G00 Z2.400000)
G00 X-46.2700 Y60.5000 
G01 Z-1.700000
G01 Z2.400000
(G00 Z2.400000)
G00 X-59.1900 Y31.5700 
G01 Z-1.700000
G01 Z2.400000
(G00 Z2.400000)
G00 X-59.1900 Y34.1100 
G01 Z-1.700000
G01 Z2.400000
(G00 Z2.400000)
G00 X-59.1900 Y36.6500 
G01 Z-1.700000
G01 Z2.400000
(G00 Z2.400000)
G00 X-59.1900 Y39.1900 
G01 Z-1.700000
G01 Z2.400000
(G00 Z2.400000)
G00 X-59.1900 Y41.7300 
G01 Z-1.700000
G01 Z2.400000
(G00 Z2.400000)
G00 X-59.1900 Y44.2700 
G01 Z-1.700000
G01 Z2.400000
(G00 Z2.400000)
G00 X-59.1900 Y46.8100 
G01 Z-1.700000
G01 Z2.400000
(G00 Z2.400000)
G00 X-59.1900 Y49.3500 
G01 Z-1.700000
G01 Z2.400000
(G00 Z2.400000)
G00 X-59.1900 Y51.8900 
G01 Z-1.700000
G01 Z2.400000
(G00 Z2.400000)
G00 X-59.1900 Y54.4300 
G01 Z-1.700000
G01 Z2.400000
(G00 Z2.400000)
G00 X-59.1900 Y56.9700 
G01 Z-1.700000
G01 Z2.400000
(G00 Z2.400000)
G00 X-59.1900 Y59.5100 
G01 Z-1.700000
G01 Z2.400000
(G00 Z2.400000)
G00 X-59.1900 Y26.4900 
G01 Z-1.700000
G01 Z2.400000
(G00 Z2.400000)
G00 X-59.1900 Y29.0300 
G01 Z-1.700000
G01 Z2.400000
(G00 Z2.400000)
G00 X-59.9200 Y65.0000 
G01 Z-1.700000
G01 Z2.400000
(G00 Z2.400000)
G00 X-66.8100 Y31.5700 
G01 Z-1.700000
G01 Z2.400000
(G00 Z2.400000)
G00 X-66.8100 Y34.1100 
G01 Z-1.700000
G01 Z2.400000
(G00 Z2.400000)
G00 X-66.8100 Y36.6500 
G01 Z-1.700000
G01 Z2.400000
(G00 Z2.400000)
G00 X-66.8100 Y39.1900 
G01 Z-1.700000
G01 Z2.400000
(G00 Z2.400000)
G00 X-66.8100 Y41.7300 
G01 Z-1.700000
G01 Z2.400000
(G00 Z2.400000)
G00 X-66.8100 Y44.2700 
G01 Z-1.700000
G01 Z2.400000
(G00 Z2.400000)
G00 X-66.8100 Y46.8100 
G01 Z-1.700000
G01 Z2.400000
(G00 Z2.400000)
G00 X-66.8100 Y49.3500 
G01 Z-1.700000
G01 Z2.400000
(G00 Z2.400000)
G00 X-66.8100 Y51.8900 
G01 Z-1.700000
G01 Z2.400000
(G00 Z2.400000)
G00 X-66.8100 Y54.4300 
G01 Z-1.700000
G01 Z2.400000
(G00 Z2.400000)
G00 X-66.8100 Y56.9700 
G01 Z-1.700000
G01 Z2.400000
(G00 Z2.400000)
G00 X-66.8100 Y59.5100 
G01 Z-1.700000
G01 Z2.400000
(G00 Z2.400000)
G00 X-66.8100 Y26.4900 
G01 Z-1.700000
G01 Z2.400000
(G00 Z2.400000)
G00 X-66.8100 Y29.0300 
G01 Z-1.700000
G01 Z2.400000
(G00 Z2.400000)
G00 X-70.0800 Y65.0000 
G01 Z-1.700000
G01 Z2.400000
(G00 Z2.400000)
G00 X-22.7300 Y49.5000 
G01 Z-1.700000
G01 Z2.400000
(G00 Z2.400000)
G00 X-22.7300 Y57.5000 
G01 Z-1.700000
G01 Z2.400000
(G00 Z2.400000)
G00 X-25.2700 Y49.5000 
G01 Z-1.700000
G01 Z2.400000
(G00 Z2.400000)
G00 X-25.2700 Y57.5000 
G01 Z-1.700000
G01 Z2.400000
(G00 Z2.400000)
G00 X-28.9200 Y53.0000 
G01 Z-1.700000
G01 Z2.400000
(G00 Z2.400000)
G00 X-29.9200 Y60.0000 
G01 Z-1.700000
G01 Z2.400000
M05
G00 Z20.0000 
M06 T04  ; 0.9000 
G01 Z0.0000 F50.00 
M06 T04  ; 0.9000 
G00 Z2.4000 
M03
G04 P3.000000
G00 Z2.400000
G00 X-31.7000 Y20.5000 
G01 Z-1.7000 F50.00 
G01 Z2.400000
(R2.4000  P1.000000)
(G00 Z2.400000)
G00 X-36.7000 Y20.5000 
G01 Z-1.700000
G01 Z2.400000
(G00 Z2.400000)
G00 X-6.7000 Y20.5000 
G01 Z-1.700000
G01 Z2.400000
(G00 Z2.400000)
G00 X-8.7000 Y20.5000 
G01 Z-1.700000
G01 Z2.400000
M05
G00 Z20.0000 
M06 T05  ; 1.0160 
G01 Z0.0000 F50.00 
M06 T05  ; 1.0160 
G00 Z2.4000 
M03
G04 P3.000000
G00 Z2.400000
G00 X-33.8900 Y40.0000 
G01 Z-1.7000 F50.00 
G01 Z2.400000
(R2.4000  P1.000000)
(G00 Z2.400000)
G00 X-33.8900 Y31.0000 
G01 Z-1.700000
G01 Z2.400000
(G00 Z2.400000)
G00 X-40.0000 Y48.3030 
G01 Z-1.700000
G01 Z2.400000
(G00 Z2.400000)
G00 X-40.0000 Y25.6970 
G01 Z-1.700000
G01 Z2.400000
(G00 Z2.400000)
G00 X-50.0000 Y33.5870 
G01 Z-1.700000
G01 Z2.400000
(G00 Z2.400000)
G00 X-50.0000 Y38.6162 
G01 Z-1.700000
G01 Z2.400000
(G00 Z2.400000)
G00 X-50.0000 Y43.6200 
G01 Z-1.700000
G01 Z2.400000
(G00 Z2.400000)
G00 X-50.0000 Y28.6086 
G01 Z-1.700000
G01 Z2.400000
(G00 Z2.400000)
G00 X-54.0000 Y54.3000 
G01 Z-1.700000
G01 Z2.400000
(G00 Z2.400000)
G00 X-54.0000 Y56.8400 
G01 Z-1.700000
G01 Z2.400000
(G00 Z2.400000)
G00 X-54.0000 Y59.3800 
G01 Z-1.700000
G01 Z2.400000
(G00 Z2.400000)
G00 X-54.0000 Y61.9200 
G01 Z-1.700000
G01 Z2.400000
(G00 Z2.400000)
G00 X-54.0000 Y64.4600 
G01 Z-1.700000
G01 Z2.400000
(G00 Z2.400000)
G00 X-54.0000 Y67.0000 
G01 Z-1.700000
G01 Z2.400000
(G00 Z2.400000)
G00 X-11.7380 Y39.8100 
G01 Z-1.700000
G01 Z2.400000
(G00 Z2.400000)
G00 X-13.2620 Y32.1900 
G01 Z-1.700000
G01 Z2.400000
(G00 Z2.400000)
G00 X-16.1100 Y40.0000 
G01 Z-1.700000
G01 Z2.400000
(G00 Z2.400000)
G00 X-16.1100 Y31.0000 
G01 Z-1.700000
G01 Z2.400000
M05
G00 Z20.0000 
M06 T06  ; 1.1176 
G01 Z0.0000 F50.00 
M06 T06  ; 1.1176 
G00 Z2.4000 
M03
G04 P3.000000
G00 Z2.400000
G00 X-13.9200 Y63.0000 
G01 Z-1.7000 F50.00 
G01 Z2.400000
(R2.4000  P1.000000)
(G00 Z2.400000)
G00 X-17.9200 Y68.0000 
G01 Z-1.700000
G01 Z2.400000
(G00 Z2.400000)
G00 X-24.0800 Y63.0000 
G01 Z-1.700000
G01 Z2.400000
(G00 Z2.400000)
G00 X-28.0800 Y68.0000 
G01 Z-1.700000
G01 Z2.400000
M05
G00 Z20.0000 
M06 T07  ; 1.2000 
G01 Z0.0000 F50.00 
M06 T07  ; 1.2000 
G00 Z2.4000 
M03
G04 P3.000000
G00 Z2.400000
G00 X-51.3960 Y21.2710 
G01 Z-1.7000 F50.00 
G01 Z2.400000
(R2.4000  P1.000000)
(G00 Z2.400000)
G00 X-51.3960 Y2.7290 
G01 Z-1.700000
G01 Z2.400000
(G00 Z2.400000)
G00 X-53.9360 Y21.2710 
G01 Z-1.700000
G01 Z2.400000
(G00 Z2.400000)
G00 X-53.9360 Y2.7290 
G01 Z-1.700000
G01 Z2.400000
(G00 Z2.400000)
G00 X-62.0640 Y21.2710 
G01 Z-1.700000
G01 Z2.400000
(G00 Z2.400000)
G00 X-62.0640 Y2.7290 
G01 Z-1.700000
G01 Z2.400000
(G00 Z2.400000)
G00 X-64.6040 Y21.2710 
G01 Z-1.700000
G01 Z2.400000
(G00 Z2.400000)
G00 X-64.6040 Y2.7290 
G01 Z-1.700000
G01 Z2.400000
M05
G00 Z20.0000 
M06 T08  ; 1.4000 
G01 Z0.0000 F50.00 
M06 T08  ; 1.4000 
G00 Z2.4000 
M03
G04 P3.000000
G00 Z2.400000
G00 X-4.6400 Y50.8200 
G01 Z-1.7000 F50.00 
G01 Z2.400000
(R2.4000  P1.000000)
(G00 Z2.400000)
G00 X-4.6400 Y58.8200 
G01 Z-1.700000
G01 Z2.400000
(G00 Z2.400000)
G00 X-4.6500 Y38.8200 
G01 Z-1.700000
G01 Z2.400000
(G00 Z2.400000)
G00 X-4.6500 Y42.8200 
G01 Z-1.700000
G01 Z2.400000
(G00 Z2.400000)
G00 X-4.6500 Y46.8200 
G01 Z-1.700000
G01 Z2.400000
(G00 Z2.400000)
G00 X-4.6500 Y62.8200 
G01 Z-1.700000
G01 Z2.400000
(G00 Z2.400000)
G00 X-4.6500 Y66.8200 
G01 Z-1.700000
G01 Z2.400000
(G00 Z2.400000)
G00 X-4.6500 Y30.8200 
G01 Z-1.700000
G01 Z2.400000
(G00 Z2.400000)
G00 X-4.6600 Y34.8200 
G01 Z-1.700000
G01 Z2.400000
(G00 Z2.400000)
G00 X-4.6600 Y54.8200 
G01 Z-1.700000
G01 Z2.400000
T01 
G00 Z12.7000 
M05
M02
