(.../pcb-gcode-3.6.0.4/pcb-gcode.ulp)
(Copyright 2005 - 2012 by John Johnson)
(See readme.txt for licensing terms.)
(This file generated from the board:)
(.../Relaya_the second Version 2.brd)
(Current profile is .../pcb-gcode-3.6.0.4/profiles/generic.pp  )
(This file generated 20-Jan-22 9:42 AM)
(Settings from pcb-machine.h)
(  Tool Size)
(0.1000 )
(Z Axis Settings)
(  High     Up        Down     Drill)
(12.7000 	2.4000 	-0.1000 	-1.7000 )
(spindle on time = 3.0000)
(milling depth = 0.1540)
(text depth = -0.1270)
(tool change at 0.0000 -12.0000 20.0000 )
(feed rate xy = F100.00 )
(feed rate z  = F50.00 )
(Settings from pcb-defaults.h)
(isolate min = 0.0254)
(isolate max = 0.3080)
(isolate step = 0.0762)
(Generated top outlines, top drill, bottom drill, )
(Unit of measure: mm)
(Metric Mode)
G21
(Absolute Coordinates)
G90
G00 X0.0000 Y0.0000 
M03
G04 P3.000000
G00 Z2.4000 
G00 X74.9470 Y47.8110 
G01 Z-0.1000 F50.00 
G01 X74.7849 Y47.8432 F100.00 
G01 X74.6322 Y47.9065 
G01 X74.4948 Y47.9983 
G01 X74.3779 Y48.1152 
G01 X74.2861 Y48.2526 
G01 X74.2228 Y48.4053 
G01 X74.2195 Y48.4222 
G01 X74.3275 Y48.4222 
G01 X74.3775 Y48.3015 
G01 X74.4581 Y48.1810 
G01 X74.5606 Y48.0785 
G01 X74.6811 Y47.9979 
G01 X74.8150 Y47.9425 
G01 X74.9571 Y47.9142 
G01 X75.4622 Y47.9142 
G01 X75.4622 Y47.8110 
G01 X74.9470 Y47.8110 
G00 Z2.4000 
G00 X76.4330 Y49.4890 
G01 Z-0.1000 F50.00 
G01 X76.5951 Y49.4568 F100.00 
G01 X76.7478 Y49.3935 
G01 X76.8852 Y49.3017 
G01 X77.0021 Y49.1848 
G01 X77.0939 Y49.0474 
G01 X77.1572 Y48.8947 
G01 X77.1605 Y48.8778 
G01 X77.0525 Y48.8778 
G01 X77.0025 Y48.9985 
G01 X76.9219 Y49.1190 
G01 X76.8194 Y49.2215 
G01 X76.6989 Y49.3021 
G01 X76.5650 Y49.3575 
G01 X76.4229 Y49.3858 
G01 X75.9178 Y49.3858 
G01 X75.9178 Y49.4890 
G01 X76.4330 Y49.4890 
G00 Z2.4000 
G00 X74.3779 Y49.1848 
G01 Z-0.1000 F50.00 
G01 X74.4948 Y49.3017 F100.00 
G01 X74.6322 Y49.3935 
G01 X74.7849 Y49.4568 
G01 X74.9470 Y49.4890 
G01 X75.4622 Y49.4890 
G01 X75.4622 Y49.3858 
G01 X74.9571 Y49.3858 
G01 X74.8150 Y49.3575 
G01 X74.6811 Y49.3021 
G01 X74.5606 Y49.2215 
G01 X74.4581 Y49.1190 
G01 X74.3775 Y48.9985 
G01 X74.3275 Y48.8778 
G01 X74.2195 Y48.8778 
G01 X74.2228 Y48.8947 
G01 X74.2861 Y49.0474 
G01 X74.3779 Y49.1848 
G00 Z2.4000 
G00 X77.1572 Y48.4053 
G01 Z-0.1000 F50.00 
G01 X77.0939 Y48.2526 F100.00 
G01 X77.0021 Y48.1152 
G01 X76.8852 Y47.9983 
G01 X76.7478 Y47.9065 
G01 X76.5951 Y47.8432 
G01 X76.4330 Y47.8110 
G01 X75.9178 Y47.8110 
G01 X75.9178 Y47.9142 
G01 X76.4229 Y47.9142 
G01 X76.5650 Y47.9425 
G01 X76.6989 Y47.9979 
G01 X76.8194 Y48.0785 
G01 X76.9219 Y48.1810 
G01 X77.0025 Y48.3015 
G01 X77.0525 Y48.4222 
G01 X77.1605 Y48.4222 
G01 X77.1572 Y48.4053 
G00 Z2.4000 
G00 X82.6720 Y82.3786 
G01 Z-0.1000 F50.00 
G01 X82.8484 Y82.3212 F100.00 
G01 X83.0137 Y82.2370 
G01 X83.1638 Y82.1280 
G01 X83.2076 Y82.0842 
G01 X83.2494 Y82.0424 
G01 X83.2822 Y82.0283 
G01 X83.3060 Y82.0184 
G01 X83.3663 Y82.0184 
G01 X83.4118 Y82.0373 
G01 X83.4220 Y82.0415 
G01 X83.4640 Y82.0835 
G01 X83.4798 Y82.1208 
G01 X83.4877 Y82.1399 
G01 X83.5062 Y82.1844 
G01 X83.9806 Y82.6588 
G01 X84.6005 Y82.9156 
G01 X85.2715 Y82.9156 
G01 X85.8914 Y82.6588 
G01 X86.3658 Y82.1844 
G01 X86.6226 Y81.5645 
G01 X86.6226 Y80.8935 
G01 X86.3658 Y80.2736 
G01 X85.8914 Y79.7992 
G01 X85.2715 Y79.5424 
G01 X84.6005 Y79.5424 
G01 X83.9806 Y79.7992 
G01 X83.5062 Y80.2736 
G01 X83.4877 Y80.3181 
G01 X83.4805 Y80.3357 
G01 X83.4647 Y80.3738 
G01 X83.4220 Y80.4165 
G01 X83.4131 Y80.4202 
G01 X83.3663 Y80.4396 
G01 X83.3060 Y80.4396 
G01 X83.2836 Y80.4303 
G01 X83.2503 Y80.4165 
G01 X83.2076 Y80.3738 
G01 X83.1638 Y80.3300 
G01 X83.0137 Y80.2210 
G01 X82.8484 Y80.1368 
G01 X82.6720 Y80.0794 
G01 X82.6238 Y80.0718 
G01 X82.6238 Y80.1763 
G01 X82.6478 Y80.1801 
G01 X82.8088 Y80.2324 
G01 X82.9596 Y80.3092 
G01 X83.0966 Y80.4087 
G01 X83.2163 Y80.5284 
G01 X83.3158 Y80.6654 
G01 X83.3926 Y80.8162 
G01 X83.4449 Y80.9772 
G01 X83.4714 Y81.1444 
G01 X83.4714 Y81.3136 
G01 X83.4449 Y81.4808 
G01 X83.3926 Y81.6418 
G01 X83.3158 Y81.7926 
G01 X83.2163 Y81.9296 
G01 X83.0966 Y82.0493 
G01 X82.9596 Y82.1488 
G01 X82.8088 Y82.2256 
G01 X82.6478 Y82.2779 
G01 X82.6238 Y82.2817 
G01 X82.6238 Y82.3862 
G01 X82.6720 Y82.3786 
G00 Z2.4000 
G00 X86.0114 Y81.1444 
G01 Z-0.1000 F50.00 
G01 X86.0114 Y81.3136 F100.00 
G01 X85.9849 Y81.4808 
G01 X85.9326 Y81.6418 
G01 X85.8558 Y81.7926 
G01 X85.7563 Y81.9296 
G01 X85.6366 Y82.0493 
G01 X85.4996 Y82.1488 
G01 X85.3488 Y82.2256 
G01 X85.1878 Y82.2779 
G01 X85.0206 Y82.3044 
G01 X84.8514 Y82.3044 
G01 X84.6842 Y82.2779 
G01 X84.5232 Y82.2256 
G01 X84.3724 Y82.1488 
G01 X84.2354 Y82.0493 
G01 X84.1157 Y81.9296 
G01 X84.0162 Y81.7926 
G01 X83.9394 Y81.6418 
G01 X83.8871 Y81.4808 
G01 X83.8606 Y81.3136 
G01 X83.8606 Y81.1444 
G01 X83.8871 Y80.9772 
G01 X83.9394 Y80.8162 
G01 X84.0162 Y80.6654 
G01 X84.1157 Y80.5284 
G01 X84.2354 Y80.4087 
G01 X84.3724 Y80.3092 
G01 X84.5232 Y80.2324 
G01 X84.6842 Y80.1801 
G01 X84.8514 Y80.1536 
G01 X85.0206 Y80.1536 
G01 X85.1878 Y80.1801 
G01 X85.3488 Y80.2324 
G01 X85.4996 Y80.3092 
G01 X85.6366 Y80.4087 
G01 X85.7563 Y80.5284 
G01 X85.8558 Y80.6654 
G01 X85.9326 Y80.8162 
G01 X85.9849 Y80.9772 
G01 X86.0114 Y81.1444 
G00 Z2.4000 
G00 X81.7783 Y80.2210 
G01 Z-0.1000 F50.00 
G01 X81.6282 Y80.3300 F100.00 
G01 X81.4970 Y80.4612 
G01 X81.3880 Y80.6113 
G01 X81.3038 Y80.7766 
G01 X81.2464 Y80.9530 
G01 X81.2388 Y81.0012 
G01 X81.3433 Y81.0012 
G01 X81.3471 Y80.9772 
G01 X81.3994 Y80.8162 
G01 X81.4762 Y80.6654 
G01 X81.5757 Y80.5284 
G01 X81.6954 Y80.4087 
G01 X81.8324 Y80.3092 
G01 X81.9832 Y80.2324 
G01 X82.1442 Y80.1801 
G01 X82.1682 Y80.1763 
G01 X82.1682 Y80.0718 
G01 X82.1200 Y80.0794 
G01 X81.9436 Y80.1368 
G01 X81.7783 Y80.2210 
G00 Z2.4000 
G00 X81.2464 Y81.5050 
G01 Z-0.1000 F50.00 
G01 X81.3038 Y81.6814 F100.00 
G01 X81.3880 Y81.8467 
G01 X81.4970 Y81.9968 
G01 X81.6282 Y82.1280 
G01 X81.7783 Y82.2370 
G01 X81.9436 Y82.3212 
G01 X82.1200 Y82.3786 
G01 X82.1682 Y82.3862 
G01 X82.1682 Y82.2817 
G01 X82.1442 Y82.2779 
G01 X81.9832 Y82.2256 
G01 X81.8324 Y82.1488 
G01 X81.6954 Y82.0493 
G01 X81.5757 Y81.9296 
G01 X81.4762 Y81.7926 
G01 X81.3994 Y81.6418 
G01 X81.3471 Y81.4808 
G01 X81.3433 Y81.4568 
G01 X81.2388 Y81.4568 
G01 X81.2464 Y81.5050 
G00 Z2.4000 
G00 X59.2727 Y63.2230 
G01 Z-0.1000 F50.00 
G01 X59.4778 Y62.7279 F100.00 
G01 X59.4778 Y62.1921 
G01 X59.2727 Y61.6970 
G01 X58.8938 Y61.3181 
G01 X58.3987 Y61.1130 
G01 X56.5421 Y61.1130 
G01 X56.0470 Y61.3181 
G01 X55.6681 Y61.6970 
G01 X55.4630 Y62.1921 
G01 X55.4630 Y62.7279 
G01 X55.6681 Y63.2230 
G01 X56.0470 Y63.6019 
G01 X56.5421 Y63.8070 
G01 X58.3987 Y63.8070 
G01 X58.8938 Y63.6019 
G01 X59.2727 Y63.2230 
G00 Z2.4000 
G00 X58.2033 Y63.1958 
G01 Z-0.1000 F50.00 
G01 X56.7375 Y63.1958 F100.00 
G01 X56.5954 Y63.1675 
G01 X56.4615 Y63.1121 
G01 X56.3410 Y63.0315 
G01 X56.2385 Y62.9290 
G01 X56.1579 Y62.8085 
G01 X56.1025 Y62.6746 
G01 X56.0742 Y62.5325 
G01 X56.0742 Y62.3875 
G01 X56.1025 Y62.2454 
G01 X56.1579 Y62.1115 
G01 X56.2385 Y61.9910 
G01 X56.3410 Y61.8885 
G01 X56.4615 Y61.8079 
G01 X56.5954 Y61.7525 
G01 X56.7375 Y61.7242 
G01 X58.2033 Y61.7242 
G01 X58.3454 Y61.7525 
G01 X58.4793 Y61.8079 
G01 X58.5998 Y61.8885 
G01 X58.7023 Y61.9910 
G01 X58.7829 Y62.1115 
G01 X58.8383 Y62.2454 
G01 X58.8666 Y62.3875 
G01 X58.8666 Y62.5325 
G01 X58.8383 Y62.6746 
G01 X58.7829 Y62.8085 
G01 X58.7023 Y62.9290 
G01 X58.5998 Y63.0315 
G01 X58.4793 Y63.1121 
G01 X58.3454 Y63.1675 
G01 X58.2033 Y63.1958 
G00 Z2.4000 
G00 X59.2727 Y43.2230 
G01 Z-0.1000 F50.00 
G01 X59.4778 Y42.7279 F100.00 
G01 X59.4778 Y42.1921 
G01 X59.2727 Y41.6970 
G01 X58.8938 Y41.3181 
G01 X58.3987 Y41.1130 
G01 X56.5421 Y41.1130 
G01 X56.0470 Y41.3181 
G01 X55.6681 Y41.6970 
G01 X55.4630 Y42.1921 
G01 X55.4630 Y42.7279 
G01 X55.6681 Y43.2230 
G01 X56.0470 Y43.6019 
G01 X56.5421 Y43.8070 
G01 X58.3987 Y43.8070 
G01 X58.8938 Y43.6019 
G01 X59.2727 Y43.2230 
G00 Z2.4000 
G00 X58.2033 Y43.1958 
G01 Z-0.1000 F50.00 
G01 X56.7375 Y43.1958 F100.00 
G01 X56.5954 Y43.1675 
G01 X56.4615 Y43.1121 
G01 X56.3410 Y43.0315 
G01 X56.2385 Y42.9290 
G01 X56.1579 Y42.8085 
G01 X56.1025 Y42.6746 
G01 X56.0742 Y42.5325 
G01 X56.0742 Y42.3875 
G01 X56.1025 Y42.2454 
G01 X56.1579 Y42.1115 
G01 X56.2385 Y41.9910 
G01 X56.3410 Y41.8885 
G01 X56.4615 Y41.8079 
G01 X56.5954 Y41.7525 
G01 X56.7375 Y41.7242 
G01 X58.2033 Y41.7242 
G01 X58.3454 Y41.7525 
G01 X58.4793 Y41.8079 
G01 X58.5998 Y41.8885 
G01 X58.7023 Y41.9910 
G01 X58.7829 Y42.1115 
G01 X58.8383 Y42.2454 
G01 X58.8666 Y42.3875 
G01 X58.8666 Y42.5325 
G01 X58.8383 Y42.6746 
G01 X58.7829 Y42.8085 
G01 X58.7023 Y42.9290 
G01 X58.5998 Y43.0315 
G01 X58.4793 Y43.1121 
G01 X58.3454 Y43.1675 
G01 X58.2033 Y43.1958 
G00 Z2.4000 
G00 X20.5674 Y33.7360 
G01 Z-0.1000 F50.00 
G01 X20.5994 Y33.8969 F100.00 
G01 X20.6622 Y34.0484 
G01 X20.7533 Y34.1847 
G01 X20.8693 Y34.3007 
G01 X21.0056 Y34.3918 
G01 X21.1571 Y34.4546 
G01 X21.1722 Y34.4576 
G01 X21.1722 Y34.3491 
G01 X21.0545 Y34.3004 
G01 X20.9350 Y34.2206 
G01 X20.8334 Y34.1190 
G01 X20.7536 Y33.9995 
G01 X20.6986 Y33.8668 
G01 X20.6706 Y33.7258 
G01 X20.6706 Y33.2278 
G01 X20.5674 Y33.2278 
G01 X20.5674 Y33.7360 
G00 Z2.4000 
G00 X22.2326 Y32.2640 
G01 Z-0.1000 F50.00 
G01 X22.2006 Y32.1031 F100.00 
G01 X22.1378 Y31.9516 
G01 X22.0467 Y31.8153 
G01 X21.9307 Y31.6993 
G01 X21.7944 Y31.6082 
G01 X21.6429 Y31.5454 
G01 X21.6278 Y31.5424 
G01 X21.6278 Y31.6509 
G01 X21.7455 Y31.6996 
G01 X21.8650 Y31.7794 
G01 X21.9666 Y31.8810 
G01 X22.0464 Y32.0005 
G01 X22.1014 Y32.1332 
G01 X22.1294 Y32.2742 
G01 X22.1294 Y32.7722 
G01 X22.2326 Y32.7722 
G01 X22.2326 Y32.2640 
G00 Z2.4000 
G00 X21.9307 Y34.3007 
G01 Z-0.1000 F50.00 
G01 X22.0467 Y34.1847 F100.00 
G01 X22.1378 Y34.0484 
G01 X22.2006 Y33.8969 
G01 X22.2326 Y33.7360 
G01 X22.2326 Y33.2278 
G01 X22.1294 Y33.2278 
G01 X22.1294 Y33.7258 
G01 X22.1014 Y33.8668 
G01 X22.0464 Y33.9995 
G01 X21.9666 Y34.1190 
G01 X21.8650 Y34.2206 
G01 X21.7455 Y34.3004 
G01 X21.6278 Y34.3491 
G01 X21.6278 Y34.4576 
G01 X21.6429 Y34.4546 
G01 X21.7944 Y34.3918 
G01 X21.9307 Y34.3007 
G00 Z2.4000 
G00 X21.1571 Y31.5454 
G01 Z-0.1000 F50.00 
G01 X21.0056 Y31.6082 F100.00 
G01 X20.8693 Y31.6993 
G01 X20.7533 Y31.8153 
G01 X20.6622 Y31.9516 
G01 X20.5994 Y32.1031 
G01 X20.5674 Y32.2640 
G01 X20.5674 Y32.7722 
G01 X20.6706 Y32.7722 
G01 X20.6706 Y32.2742 
G01 X20.6986 Y32.1332 
G01 X20.7536 Y32.0005 
G01 X20.8334 Y31.8810 
G01 X20.9350 Y31.7794 
G01 X21.0545 Y31.6996 
G01 X21.1722 Y31.6509 
G01 X21.1722 Y31.5424 
G01 X21.1571 Y31.5454 
G00 Z2.4000 
G00 X21.9307 Y42.8007 
G01 Z-0.1000 F50.00 
G01 X22.0467 Y42.6847 F100.00 
G01 X22.1378 Y42.5484 
G01 X22.2006 Y42.3969 
G01 X22.2326 Y42.2360 
G01 X22.2326 Y41.7278 
G01 X22.1294 Y41.7278 
G01 X22.1294 Y42.2258 
G01 X22.1014 Y42.3668 
G01 X22.0464 Y42.4995 
G01 X21.9666 Y42.6190 
G01 X21.8650 Y42.7206 
G01 X21.7455 Y42.8004 
G01 X21.6278 Y42.8491 
G01 X21.6278 Y42.9576 
G01 X21.6429 Y42.9546 
G01 X21.7944 Y42.8918 
G01 X21.9307 Y42.8007 
G00 Z2.4000 
G00 X22.2326 Y40.7640 
G01 Z-0.1000 F50.00 
G01 X22.2006 Y40.6031 F100.00 
G01 X22.1378 Y40.4516 
G01 X22.0467 Y40.3152 
G01 X21.9307 Y40.1993 
G01 X21.7944 Y40.1082 
G01 X21.6429 Y40.0454 
G01 X21.6278 Y40.0424 
G01 X21.6278 Y40.1509 
G01 X21.7455 Y40.1996 
G01 X21.8650 Y40.2794 
G01 X21.9666 Y40.3810 
G01 X22.0464 Y40.5005 
G01 X22.1014 Y40.6332 
G01 X22.1294 Y40.7742 
G01 X22.1294 Y41.2722 
G01 X22.2326 Y41.2722 
G01 X22.2326 Y40.7640 
G00 Z2.4000 
G00 X21.1571 Y40.0454 
G01 Z-0.1000 F50.00 
G01 X21.0056 Y40.1082 F100.00 
G01 X20.8693 Y40.1993 
G01 X20.7533 Y40.3152 
G01 X20.6622 Y40.4516 
G01 X20.5994 Y40.6031 
G01 X20.5674 Y40.7640 
G01 X20.5674 Y41.2722 
G01 X20.6706 Y41.2722 
G01 X20.6706 Y40.7742 
G01 X20.6986 Y40.6332 
G01 X20.7536 Y40.5005 
G01 X20.8334 Y40.3810 
G01 X20.9350 Y40.2794 
G01 X21.0545 Y40.1996 
G01 X21.1722 Y40.1509 
G01 X21.1722 Y40.0424 
G01 X21.1571 Y40.0454 
G00 Z2.4000 
G00 X20.5674 Y42.2360 
G01 Z-0.1000 F50.00 
G01 X20.5994 Y42.3969 F100.00 
G01 X20.6622 Y42.5484 
G01 X20.7533 Y42.6847 
G01 X20.8693 Y42.8007 
G01 X21.0056 Y42.8918 
G01 X21.1571 Y42.9546 
G01 X21.1722 Y42.9576 
G01 X21.1722 Y42.8491 
G01 X21.0545 Y42.8004 
G01 X20.9350 Y42.7206 
G01 X20.8334 Y42.6190 
G01 X20.7536 Y42.4995 
G01 X20.6986 Y42.3668 
G01 X20.6706 Y42.2258 
G01 X20.6706 Y41.7278 
G01 X20.5674 Y41.7278 
G01 X20.5674 Y42.2360 
G00 Z2.4000 
G00 X20.5674 Y51.2360 
G01 Z-0.1000 F50.00 
G01 X20.5994 Y51.3969 F100.00 
G01 X20.6622 Y51.5484 
G01 X20.7533 Y51.6847 
G01 X20.8693 Y51.8007 
G01 X21.0056 Y51.8918 
G01 X21.1571 Y51.9546 
G01 X21.1722 Y51.9576 
G01 X21.1722 Y51.8491 
G01 X21.0545 Y51.8004 
G01 X20.9350 Y51.7206 
G01 X20.8334 Y51.6190 
G01 X20.7536 Y51.4995 
G01 X20.6986 Y51.3668 
G01 X20.6706 Y51.2258 
G01 X20.6706 Y50.7278 
G01 X20.5674 Y50.7278 
G01 X20.5674 Y51.2360 
G00 Z2.4000 
G00 X22.1231 Y85.1344 
G01 Z-0.1000 F50.00 
G01 X21.5756 Y84.5869 F100.00 
G01 X20.9050 Y84.1998 
G01 X20.1571 Y83.9994 
G01 X19.3829 Y83.9994 
G01 X18.6350 Y84.1998 
G01 X17.9644 Y84.5869 
G01 X17.4169 Y85.1344 
G01 X17.0298 Y85.8050 
G01 X16.8294 Y86.5529 
G01 X16.8294 Y87.3271 
G01 X17.0298 Y88.0750 
G01 X17.4169 Y88.7456 
G01 X17.9644 Y89.2931 
G01 X18.6350 Y89.6802 
G01 X19.3829 Y89.8806 
G01 X20.1571 Y89.8806 
G01 X20.9050 Y89.6802 
G01 X21.5756 Y89.2931 
G01 X22.1231 Y88.7456 
G01 X22.5102 Y88.0750 
G01 X22.7106 Y87.3271 
G01 X22.7106 Y86.5529 
G01 X22.5102 Y85.8050 
G01 X22.1231 Y85.1344 
G00 Z2.4000 
G00 X35.0130 Y48.5473 
G01 Z-0.1000 F50.00 
G01 X34.3727 Y47.9070 F100.00 
G01 X33.4673 Y47.9070 
G01 X32.8270 Y48.5473 
G01 X32.8270 Y49.4707 
G01 X32.8374 Y49.4958 
G01 X32.8374 Y51.7960 
G01 X32.8143 Y51.8517 
G01 X32.7717 Y51.8943 
G01 X32.7160 Y51.9174 
G01 X28.4811 Y51.9174 
G01 X28.4253 Y51.8943 
G01 X28.3827 Y51.8517 
G01 X27.7097 Y51.1786 
G01 X27.6866 Y51.1229 
G01 X27.6866 Y49.6299 
G01 X27.5212 Y49.2305 
G01 X27.2155 Y48.9248 
G01 X26.8161 Y48.7594 
G01 X26.3839 Y48.7594 
G01 X25.9845 Y48.9248 
G01 X25.6788 Y49.2305 
G01 X25.5134 Y49.6299 
G01 X25.5134 Y51.3701 
G01 X25.5174 Y51.3798 
G01 X25.5174 Y51.4096 
G01 X25.5174 Y51.4401 
G01 X25.5174 Y51.8153 
G01 X25.6822 Y52.2132 
G01 X27.0822 Y53.6132 
G01 X27.3868 Y53.9178 
G01 X27.7847 Y54.0826 
G01 X33.4242 Y54.0826 
G01 X33.4493 Y54.0930 
G01 X34.3727 Y54.0930 
G01 X35.0130 Y53.4527 
G01 X35.0130 Y52.5293 
G01 X35.0026 Y52.5042 
G01 X35.0026 Y49.4958 
G01 X35.0130 Y49.4707 
G01 X35.0130 Y48.5473 
G00 Z2.4000 
G00 X34.6558 Y52.6952 
G01 Z-0.1000 F50.00 
G01 X34.6558 Y53.3048 F100.00 
G01 X34.2248 Y53.7358 
G01 X33.6152 Y53.7358 
G01 X33.6048 Y53.7254 
G01 X27.9286 Y53.7254 
G01 X27.7884 Y53.6975 
G01 X27.6564 Y53.6428 
G01 X27.5376 Y53.5635 
G01 X27.4365 Y53.4624 
G01 X26.0365 Y52.0624 
G01 X25.9572 Y51.9436 
G01 X25.9025 Y51.8116 
G01 X25.8746 Y51.6714 
G01 X25.8746 Y51.2459 
G01 X25.8706 Y51.2258 
G01 X25.8706 Y49.7742 
G01 X25.8986 Y49.6332 
G01 X25.9536 Y49.5005 
G01 X26.0334 Y49.3810 
G01 X26.1350 Y49.2794 
G01 X26.2545 Y49.1996 
G01 X26.3872 Y49.1446 
G01 X26.5282 Y49.1166 
G01 X26.6718 Y49.1166 
G01 X26.8128 Y49.1446 
G01 X26.9455 Y49.1996 
G01 X27.0650 Y49.2794 
G01 X27.1666 Y49.3810 
G01 X27.2464 Y49.5005 
G01 X27.3014 Y49.6332 
G01 X27.3294 Y49.7742 
G01 X27.3294 Y51.2258 
G01 X27.3254 Y51.2459 
G01 X27.3254 Y51.2995 
G01 X28.3005 Y52.2746 
G01 X33.1946 Y52.2746 
G01 X33.1946 Y49.3152 
G01 X33.1842 Y49.3048 
G01 X33.1842 Y48.6952 
G01 X33.6152 Y48.2642 
G01 X34.2248 Y48.2642 
G01 X34.6558 Y48.6952 
G01 X34.6558 Y49.3048 
G01 X34.6454 Y49.3152 
G01 X34.6454 Y52.6848 
G01 X34.6558 Y52.6952 
G00 Z2.4000 
G00 X20.5674 Y58.7360 
G01 Z-0.1000 F50.00 
G01 X20.5994 Y58.8969 F100.00 
G01 X20.6622 Y59.0484 
G01 X20.7533 Y59.1847 
G01 X20.8693 Y59.3007 
G01 X21.0056 Y59.3918 
G01 X21.1571 Y59.4546 
G01 X21.1722 Y59.4576 
G01 X21.1722 Y59.3491 
G01 X21.0545 Y59.3004 
G01 X20.9350 Y59.2206 
G01 X20.8334 Y59.1190 
G01 X20.7536 Y58.9995 
G01 X20.6986 Y58.8668 
G01 X20.6706 Y58.7258 
G01 X20.6706 Y58.2278 
G01 X20.5674 Y58.2278 
G01 X20.5674 Y58.7360 
G00 Z2.4000 
G00 X22.2326 Y57.2640 
G01 Z-0.1000 F50.00 
G01 X22.2006 Y57.1031 F100.00 
G01 X22.1378 Y56.9516 
G01 X22.0467 Y56.8153 
G01 X21.9307 Y56.6993 
G01 X21.7944 Y56.6082 
G01 X21.6429 Y56.5454 
G01 X21.6278 Y56.5424 
G01 X21.6278 Y56.6509 
G01 X21.7455 Y56.6996 
G01 X21.8650 Y56.7794 
G01 X21.9666 Y56.8810 
G01 X22.0464 Y57.0005 
G01 X22.1014 Y57.1332 
G01 X22.1294 Y57.2742 
G01 X22.1294 Y57.7722 
G01 X22.2326 Y57.7722 
G01 X22.2326 Y57.2640 
G00 Z2.4000 
G00 X21.9307 Y59.3007 
G01 Z-0.1000 F50.00 
G01 X22.0467 Y59.1847 F100.00 
G01 X22.1378 Y59.0484 
G01 X22.2006 Y58.8969 
G01 X22.2326 Y58.7360 
G01 X22.2326 Y58.2278 
G01 X22.1294 Y58.2278 
G01 X22.1294 Y58.7258 
G01 X22.1014 Y58.8668 
G01 X22.0464 Y58.9995 
G01 X21.9666 Y59.1190 
G01 X21.8650 Y59.2206 
G01 X21.7455 Y59.3004 
G01 X21.6278 Y59.3491 
G01 X21.6278 Y59.4576 
G01 X21.6429 Y59.4546 
G01 X21.7944 Y59.3918 
G01 X21.9307 Y59.3007 
G00 Z2.4000 
G00 X21.1571 Y56.5454 
G01 Z-0.1000 F50.00 
G01 X21.0056 Y56.6082 F100.00 
G01 X20.8693 Y56.6993 
G01 X20.7533 Y56.8153 
G01 X20.6622 Y56.9516 
G01 X20.5994 Y57.1031 
G01 X20.5674 Y57.2640 
G01 X20.5674 Y57.7722 
G01 X20.6706 Y57.7722 
G01 X20.6706 Y57.2742 
G01 X20.6986 Y57.1332 
G01 X20.7536 Y57.0005 
G01 X20.8334 Y56.8810 
G01 X20.9350 Y56.7794 
G01 X21.0545 Y56.6996 
G01 X21.1722 Y56.6509 
G01 X21.1722 Y56.5424 
G01 X21.1571 Y56.5454 
G00 Z2.4000 
G00 X85.3910 Y23.3475 
G01 Z-0.1000 F50.00 
G01 X85.8825 Y23.8390 F100.00 
G01 X86.0022 Y23.8390 
G01 X86.0022 Y23.7358 
G01 X85.9252 Y23.7358 
G01 X85.4942 Y23.3048 
G01 X85.4942 Y23.2278 
G01 X85.3910 Y23.2278 
G01 X85.3910 Y23.3475 
G00 Z2.4000 
G00 X86.9658 Y23.3048 
G01 Z-0.1000 F50.00 
G01 X86.5348 Y23.7358 F100.00 
G01 X86.4578 Y23.7358 
G01 X86.4578 Y23.8390 
G01 X86.5775 Y23.8390 
G01 X87.0690 Y23.3475 
G01 X87.0690 Y23.2278 
G01 X86.9658 Y23.2278 
G01 X86.9658 Y23.3048 
G00 Z2.4000 
G00 X86.9658 Y22.6952 
G01 Z-0.1000 F50.00 
G01 X86.9658 Y22.7722 F100.00 
G01 X87.0690 Y22.7722 
G01 X87.0690 Y22.6525 
G01 X86.5775 Y22.1610 
G01 X86.4578 Y22.1610 
G01 X86.4578 Y22.2642 
G01 X86.5348 Y22.2642 
G01 X86.9658 Y22.6952 
G00 Z2.4000 
G00 X85.8825 Y22.1610 
G01 Z-0.1000 F50.00 
G01 X85.3910 Y22.6525 F100.00 
G01 X85.3910 Y22.7722 
G01 X85.4942 Y22.7722 
G01 X85.4942 Y22.6952 
G01 X85.9252 Y22.2642 
G01 X86.0022 Y22.2642 
G01 X86.0022 Y22.1610 
G01 X85.8825 Y22.1610 
G00 Z2.4000 
G00 X42.7410 Y31.3475 
G01 Z-0.1000 F50.00 
G01 X43.2325 Y31.8390 F100.00 
G01 X43.3522 Y31.8390 
G01 X43.3522 Y31.7358 
G01 X43.2752 Y31.7358 
G01 X42.8442 Y31.3048 
G01 X42.8442 Y31.2278 
G01 X42.7410 Y31.2278 
G01 X42.7410 Y31.3475 
G00 Z2.4000 
G00 X44.3158 Y31.3048 
G01 Z-0.1000 F50.00 
G01 X43.8848 Y31.7358 F100.00 
G01 X43.8078 Y31.7358 
G01 X43.8078 Y31.8390 
G01 X43.9275 Y31.8390 
G01 X44.4190 Y31.3475 
G01 X44.4190 Y31.2278 
G01 X44.3158 Y31.2278 
G01 X44.3158 Y31.3048 
G00 Z2.4000 
G00 X44.3158 Y30.6952 
G01 Z-0.1000 F50.00 
G01 X44.3158 Y30.7722 F100.00 
G01 X44.4190 Y30.7722 
G01 X44.4190 Y30.6525 
G01 X43.9275 Y30.1610 
G01 X43.8078 Y30.1610 
G01 X43.8078 Y30.2642 
G01 X43.8848 Y30.2642 
G01 X44.3158 Y30.6952 
G00 Z2.4000 
G00 X43.2325 Y30.1610 
G01 Z-0.1000 F50.00 
G01 X42.7410 Y30.6525 F100.00 
G01 X42.7410 Y30.7722 
G01 X42.8442 Y30.7722 
G01 X42.8442 Y30.6952 
G01 X43.2752 Y30.2642 
G01 X43.3522 Y30.2642 
G01 X43.3522 Y30.1610 
G01 X43.2325 Y30.1610 
G00 Z2.4000 
G00 X75.8910 Y23.8475 
G01 Z-0.1000 F50.00 
G01 X76.3825 Y24.3390 F100.00 
G01 X76.5022 Y24.3390 
G01 X76.5022 Y24.2358 
G01 X76.4252 Y24.2358 
G01 X75.9942 Y23.8048 
G01 X75.9942 Y23.7278 
G01 X75.8910 Y23.7278 
G01 X75.8910 Y23.8475 
G00 Z2.4000 
G00 X77.4658 Y23.8048 
G01 Z-0.1000 F50.00 
G01 X77.0348 Y24.2358 F100.00 
G01 X76.9578 Y24.2358 
G01 X76.9578 Y24.3390 
G01 X77.0775 Y24.3390 
G01 X77.5690 Y23.8475 
G01 X77.5690 Y23.7278 
G01 X77.4658 Y23.7278 
G01 X77.4658 Y23.8048 
G00 Z2.4000 
G00 X77.4658 Y23.1952 
G01 Z-0.1000 F50.00 
G01 X77.4658 Y23.2722 F100.00 
G01 X77.5690 Y23.2722 
G01 X77.5690 Y23.1525 
G01 X77.0775 Y22.6610 
G01 X76.9578 Y22.6610 
G01 X76.9578 Y22.7642 
G01 X77.0348 Y22.7642 
G01 X77.4658 Y23.1952 
G00 Z2.4000 
G00 X76.3825 Y22.6610 
G01 Z-0.1000 F50.00 
G01 X75.8910 Y23.1525 F100.00 
G01 X75.8910 Y23.2722 
G01 X75.9942 Y23.2722 
G01 X75.9942 Y23.1952 
G01 X76.4252 Y22.7642 
G01 X76.5022 Y22.7642 
G01 X76.5022 Y22.6610 
G01 X76.3825 Y22.6610 
G00 Z2.4000 
G00 X42.7410 Y22.3475 
G01 Z-0.1000 F50.00 
G01 X43.2325 Y22.8390 F100.00 
G01 X43.3522 Y22.8390 
G01 X43.3522 Y22.7358 
G01 X43.2752 Y22.7358 
G01 X42.8442 Y22.3048 
G01 X42.8442 Y22.2278 
G01 X42.7410 Y22.2278 
G01 X42.7410 Y22.3475 
G00 Z2.4000 
G00 X44.3158 Y21.6952 
G01 Z-0.1000 F50.00 
G01 X44.3158 Y21.7722 F100.00 
G01 X44.4190 Y21.7722 
G01 X44.4190 Y21.6525 
G01 X43.9275 Y21.1610 
G01 X43.8078 Y21.1610 
G01 X43.8078 Y21.2642 
G01 X43.8848 Y21.2642 
G01 X44.3158 Y21.6952 
G00 Z2.4000 
G00 X43.2325 Y21.1610 
G01 Z-0.1000 F50.00 
G01 X42.7410 Y21.6525 F100.00 
G01 X42.7410 Y21.7722 
G01 X42.8442 Y21.7722 
G01 X42.8442 Y21.6952 
G01 X43.2752 Y21.2642 
G01 X43.3522 Y21.2642 
G01 X43.3522 Y21.1610 
G01 X43.2325 Y21.1610 
G00 Z2.4000 
G00 X90.3910 Y16.8475 
G01 Z-0.1000 F50.00 
G01 X90.8825 Y17.3390 F100.00 
G01 X91.0022 Y17.3390 
G01 X91.0022 Y17.2358 
G01 X90.9252 Y17.2358 
G01 X90.4942 Y16.8048 
G01 X90.4942 Y16.7278 
G01 X90.3910 Y16.7278 
G01 X90.3910 Y16.8475 
G00 Z2.4000 
G00 X91.9658 Y16.8048 
G01 Z-0.1000 F50.00 
G01 X91.5348 Y17.2358 F100.00 
G01 X91.4578 Y17.2358 
G01 X91.4578 Y17.3390 
G01 X91.5775 Y17.3390 
G01 X92.0690 Y16.8475 
G01 X92.0690 Y16.7278 
G01 X91.9658 Y16.7278 
G01 X91.9658 Y16.8048 
G00 Z2.4000 
G00 X91.9658 Y16.1952 
G01 Z-0.1000 F50.00 
G01 X91.9658 Y16.2722 F100.00 
G01 X92.0690 Y16.2722 
G01 X92.0690 Y16.1525 
G01 X91.5775 Y15.6610 
G01 X91.4578 Y15.6610 
G01 X91.4578 Y15.7642 
G01 X91.5348 Y15.7642 
G01 X91.9658 Y16.1952 
G00 Z2.4000 
G00 X90.8825 Y15.6610 
G01 Z-0.1000 F50.00 
G01 X90.3910 Y16.1525 F100.00 
G01 X90.3910 Y16.2722 
G01 X90.4942 Y16.2722 
G01 X90.4942 Y16.1952 
G01 X90.9252 Y15.7642 
G01 X91.0022 Y15.7642 
G01 X91.0022 Y15.6610 
G01 X90.8825 Y15.6610 
G00 Z2.4000 
G00 X42.7410 Y40.3475 
G01 Z-0.1000 F50.00 
G01 X43.2325 Y40.8390 F100.00 
G01 X43.3522 Y40.8390 
G01 X43.3522 Y40.7358 
G01 X43.2752 Y40.7358 
G01 X42.8442 Y40.3048 
G01 X42.8442 Y40.2278 
G01 X42.7410 Y40.2278 
G01 X42.7410 Y40.3475 
G00 Z2.4000 
G00 X44.3158 Y40.3048 
G01 Z-0.1000 F50.00 
G01 X43.8848 Y40.7358 F100.00 
G01 X43.8078 Y40.7358 
G01 X43.8078 Y40.8390 
G01 X43.9275 Y40.8390 
G01 X44.4190 Y40.3475 
G01 X44.4190 Y40.2278 
G01 X44.3158 Y40.2278 
G01 X44.3158 Y40.3048 
G00 Z2.4000 
G00 X44.3158 Y39.6952 
G01 Z-0.1000 F50.00 
G01 X44.3158 Y39.7722 F100.00 
G01 X44.4190 Y39.7722 
G01 X44.4190 Y39.6525 
G01 X43.9275 Y39.1610 
G01 X43.8078 Y39.1610 
G01 X43.8078 Y39.2642 
G01 X43.8848 Y39.2642 
G01 X44.3158 Y39.6952 
G00 Z2.4000 
G00 X43.2325 Y39.1610 
G01 Z-0.1000 F50.00 
G01 X42.7410 Y39.6525 F100.00 
G01 X42.7410 Y39.7722 
G01 X42.8442 Y39.7722 
G01 X42.8442 Y39.6952 
G01 X43.2752 Y39.2642 
G01 X43.3522 Y39.2642 
G01 X43.3522 Y39.1610 
G01 X43.2325 Y39.1610 
G00 Z2.4000 
G00 X43.2410 Y49.3475 
G01 Z-0.1000 F50.00 
G01 X43.7325 Y49.8390 F100.00 
G01 X43.8522 Y49.8390 
G01 X43.8522 Y49.7358 
G01 X43.7752 Y49.7358 
G01 X43.3442 Y49.3048 
G01 X43.3442 Y49.2278 
G01 X43.2410 Y49.2278 
G01 X43.2410 Y49.3475 
G00 Z2.4000 
G00 X44.8158 Y49.3048 
G01 Z-0.1000 F50.00 
G01 X44.3848 Y49.7358 F100.00 
G01 X44.3078 Y49.7358 
G01 X44.3078 Y49.8390 
G01 X44.4275 Y49.8390 
G01 X44.9190 Y49.3475 
G01 X44.9190 Y49.2278 
G01 X44.8158 Y49.2278 
G01 X44.8158 Y49.3048 
G00 Z2.4000 
G00 X44.8158 Y48.6952 
G01 Z-0.1000 F50.00 
G01 X44.8158 Y48.7722 F100.00 
G01 X44.9190 Y48.7722 
G01 X44.9190 Y48.6525 
G01 X44.4275 Y48.1610 
G01 X44.3078 Y48.1610 
G01 X44.3078 Y48.2642 
G01 X44.3848 Y48.2642 
G01 X44.8158 Y48.6952 
G00 Z2.4000 
G00 X43.7325 Y48.1610 
G01 Z-0.1000 F50.00 
G01 X43.2410 Y48.6525 F100.00 
G01 X43.2410 Y48.7722 
G01 X43.3442 Y48.7722 
G01 X43.3442 Y48.6952 
G01 X43.7752 Y48.2642 
G01 X43.8522 Y48.2642 
G01 X43.8522 Y48.1610 
G01 X43.7325 Y48.1610 
G00 Z2.4000 
G00 X69.9950 Y76.5211 
G01 Z-0.1000 F50.00 
G01 X69.8448 Y76.5699 F100.00 
G01 X69.7040 Y76.6416 
G01 X69.5762 Y76.7345 
G01 X69.4645 Y76.8462 
G01 X69.3716 Y76.9740 
G01 X69.2999 Y77.1148 
G01 X69.2511 Y77.2650 
G01 X69.2508 Y77.2852 
G01 X69.2461 Y77.2965 
G01 X69.2442 Y77.3085 
G01 X69.2347 Y77.3241 
G01 X69.2277 Y77.3409 
G01 X69.2191 Y77.3496 
G01 X69.2127 Y77.3600 
G01 X69.1980 Y77.3707 
G01 X69.1851 Y77.3836 
G01 X69.1738 Y77.3882 
G01 X69.1639 Y77.3954 
G01 X69.1462 Y77.3997 
G01 X69.1294 Y77.4066 
G01 X69.1171 Y77.4066 
G01 X69.1053 Y77.4095 
G01 X69.0873 Y77.4066 
G01 X69.0690 Y77.4066 
G01 X69.0578 Y77.4020 
G01 X69.0457 Y77.4001 
G01 X69.0302 Y77.3905 
G01 X69.0133 Y77.3836 
G01 X69.0047 Y77.3749 
G01 X68.9943 Y77.3686 
G01 X68.9836 Y77.3538 
G01 X68.9707 Y77.3409 
G01 X68.9660 Y77.3297 
G01 X68.9588 Y77.3198 
G01 X68.9546 Y77.3020 
G01 X68.9476 Y77.2852 
G01 X68.9476 Y77.2730 
G01 X68.9447 Y77.2611 
G01 X68.9468 Y77.2480 
G01 X68.7561 Y76.7876 
G01 X68.4024 Y76.4339 
G01 X67.9402 Y76.2424 
G01 X67.4398 Y76.2424 
G01 X66.9776 Y76.4339 
G01 X66.6239 Y76.7876 
G01 X66.4324 Y77.2498 
G01 X66.4324 Y77.7502 
G01 X66.6239 Y78.2124 
G01 X66.9776 Y78.5661 
G01 X67.4398 Y78.7576 
G01 X67.9402 Y78.7576 
G01 X68.4024 Y78.5661 
G01 X68.7561 Y78.2124 
G01 X68.9468 Y77.7520 
G01 X68.9447 Y77.7389 
G01 X68.9476 Y77.7270 
G01 X68.9476 Y77.7148 
G01 X68.9546 Y77.6980 
G01 X68.9588 Y77.6802 
G01 X68.9660 Y77.6703 
G01 X68.9707 Y77.6591 
G01 X68.9836 Y77.6462 
G01 X68.9943 Y77.6314 
G01 X69.0047 Y77.6251 
G01 X69.0133 Y77.6164 
G01 X69.0302 Y77.6094 
G01 X69.0457 Y77.5999 
G01 X69.0578 Y77.5980 
G01 X69.0690 Y77.5933 
G01 X69.0873 Y77.5933 
G01 X69.1053 Y77.5905 
G01 X69.1171 Y77.5933 
G01 X69.1294 Y77.5933 
G01 X69.1462 Y77.6003 
G01 X69.1639 Y77.6046 
G01 X69.1738 Y77.6118 
G01 X69.1851 Y77.6164 
G01 X69.1980 Y77.6293 
G01 X69.2127 Y77.6400 
G01 X69.2191 Y77.6504 
G01 X69.2277 Y77.6591 
G01 X69.2347 Y77.6759 
G01 X69.2442 Y77.6915 
G01 X69.2461 Y77.7035 
G01 X69.2508 Y77.7148 
G01 X69.2508 Y77.7330 
G01 X69.2999 Y77.8852 
G01 X69.3716 Y78.0260 
G01 X69.4645 Y78.1538 
G01 X69.5762 Y78.2655 
G01 X69.7040 Y78.3584 
G01 X69.8447 Y78.4301 
G01 X69.9950 Y78.4789 
G01 X70.0022 Y78.4800 
G01 X70.0022 Y78.3727 
G01 X69.9674 Y78.3658 
G01 X69.8035 Y78.2979 
G01 X69.6560 Y78.1994 
G01 X69.5306 Y78.0740 
G01 X69.4321 Y77.9265 
G01 X69.3642 Y77.7626 
G01 X69.3296 Y77.5887 
G01 X69.3296 Y77.4113 
G01 X69.3642 Y77.2374 
G01 X69.4321 Y77.0735 
G01 X69.5306 Y76.9260 
G01 X69.6560 Y76.8006 
G01 X69.8035 Y76.7021 
G01 X69.9674 Y76.6342 
G01 X70.0022 Y76.6273 
G01 X70.0022 Y76.5200 
G01 X69.9950 Y76.5211 
G00 Z2.4000 
G00 X68.5904 Y77.4113 
G01 Z-0.1000 F50.00 
G01 X68.5904 Y77.5887 F100.00 
G01 X68.5558 Y77.7626 
G01 X68.4879 Y77.9265 
G01 X68.3894 Y78.0740 
G01 X68.2640 Y78.1994 
G01 X68.1165 Y78.2979 
G01 X67.9526 Y78.3658 
G01 X67.7787 Y78.4004 
G01 X67.6013 Y78.4004 
G01 X67.4274 Y78.3658 
G01 X67.2635 Y78.2979 
G01 X67.1160 Y78.1994 
G01 X66.9906 Y78.0740 
G01 X66.8921 Y77.9265 
G01 X66.8242 Y77.7626 
G01 X66.7896 Y77.5887 
G01 X66.7896 Y77.4113 
G01 X66.8242 Y77.2374 
G01 X66.8921 Y77.0735 
G01 X66.9906 Y76.9260 
G01 X67.1160 Y76.8006 
G01 X67.2635 Y76.7021 
G01 X67.4274 Y76.6342 
G01 X67.6013 Y76.5996 
G01 X67.7787 Y76.5996 
G01 X67.9526 Y76.6342 
G01 X68.1165 Y76.7021 
G01 X68.2640 Y76.8006 
G01 X68.3894 Y76.9260 
G01 X68.4879 Y77.0735 
G01 X68.5558 Y77.2374 
G01 X68.5904 Y77.4113 
G00 Z2.4000 
G00 X43.7325 Y59.6610 
G01 Z-0.1000 F50.00 
G01 X43.2410 Y60.1525 F100.00 
G01 X43.2410 Y60.2722 
G01 X43.3442 Y60.2722 
G01 X43.3442 Y60.1952 
G01 X43.7752 Y59.7642 
G01 X43.8522 Y59.7642 
G01 X43.8522 Y59.6610 
G01 X43.7325 Y59.6610 
G00 Z2.4000 
G00 X44.4190 Y22.3475 
G01 Z-0.1000 F50.00 
G01 X44.4190 Y22.2278 F100.00 
G01 X44.3158 Y22.2278 
G01 X44.3158 Y22.3048 
G01 X43.8848 Y22.7358 
G01 X43.8078 Y22.7358 
G01 X43.8078 Y22.8390 
G01 X43.9275 Y22.8390 
G01 X44.4190 Y22.3475 
G00 Z2.4000 
G00 X44.9190 Y60.1525 
G01 Z-0.1000 F50.00 
G01 X44.4275 Y59.6610 F100.00 
G01 X44.3078 Y59.6610 
G01 X44.3078 Y59.7642 
G01 X44.3848 Y59.7642 
G01 X44.8158 Y60.1952 
G01 X44.8158 Y60.2722 
G01 X44.9190 Y60.2722 
G01 X44.9190 Y60.1525 
G00 Z2.4000 
G00 X43.2410 Y60.8475 
G01 Z-0.1000 F50.00 
G01 X43.7325 Y61.3390 F100.00 
G01 X43.8522 Y61.3390 
G01 X43.8522 Y61.2358 
G01 X43.7752 Y61.2358 
G01 X43.3442 Y60.8048 
G01 X43.3442 Y60.7278 
G01 X43.2410 Y60.7278 
G01 X43.2410 Y60.8475 
G00 Z2.4000 
G00 X85.8910 Y11.3475 
G01 Z-0.1000 F50.00 
G01 X86.3825 Y11.8390 F100.00 
G01 X86.5022 Y11.8390 
G01 X86.5022 Y11.7358 
G01 X86.4252 Y11.7358 
G01 X85.9942 Y11.3048 
G01 X85.9942 Y11.2278 
G01 X85.8910 Y11.2278 
G01 X85.8910 Y11.3475 
G00 Z2.4000 
G00 X87.4658 Y11.3048 
G01 Z-0.1000 F50.00 
G01 X87.0348 Y11.7358 F100.00 
G01 X86.9578 Y11.7358 
G01 X86.9578 Y11.8390 
G01 X87.0775 Y11.8390 
G01 X87.5690 Y11.3475 
G01 X87.5690 Y11.2278 
G01 X87.4658 Y11.2278 
G01 X87.4658 Y11.3048 
G00 Z2.4000 
G00 X87.4658 Y10.6952 
G01 Z-0.1000 F50.00 
G01 X87.4658 Y10.7722 F100.00 
G01 X87.5690 Y10.7722 
G01 X87.5690 Y10.6525 
G01 X87.0775 Y10.1610 
G01 X86.9578 Y10.1610 
G01 X86.9578 Y10.2642 
G01 X87.0348 Y10.2642 
G01 X87.4658 Y10.6952 
G00 Z2.4000 
G00 X86.3825 Y10.1610 
G01 Z-0.1000 F50.00 
G01 X85.8910 Y10.6525 F100.00 
G01 X85.8910 Y10.7722 
G01 X85.9942 Y10.7722 
G01 X85.9942 Y10.6952 
G01 X86.4252 Y10.2642 
G01 X86.5022 Y10.2642 
G01 X86.5022 Y10.1610 
G01 X86.3825 Y10.1610 
G00 Z2.4000 
G00 X76.3825 Y10.1610 
G01 Z-0.1000 F50.00 
G01 X75.8910 Y10.6525 F100.00 
G01 X75.8910 Y10.7722 
G01 X75.9942 Y10.7722 
G01 X75.9942 Y10.6952 
G01 X76.4252 Y10.2642 
G01 X76.5022 Y10.2642 
G01 X76.5022 Y10.1610 
G01 X76.3825 Y10.1610 
G00 Z2.4000 
G00 X77.4658 Y10.6952 
G01 Z-0.1000 F50.00 
G01 X77.4658 Y10.7722 F100.00 
G01 X77.5690 Y10.7722 
G01 X77.5690 Y10.6525 
G01 X77.0775 Y10.1610 
G01 X76.9578 Y10.1610 
G01 X76.9578 Y10.2642 
G01 X77.0348 Y10.2642 
G01 X77.4658 Y10.6952 
G00 Z2.4000 
G00 X77.4658 Y11.3048 
G01 Z-0.1000 F50.00 
G01 X77.0348 Y11.7358 F100.00 
G01 X76.9578 Y11.7358 
G01 X76.9578 Y11.8390 
G01 X77.0775 Y11.8390 
G01 X77.5690 Y11.3475 
G01 X77.5690 Y11.2278 
G01 X77.4658 Y11.2278 
G01 X77.4658 Y11.3048 
G00 Z2.4000 
G00 X75.8910 Y11.3475 
G01 Z-0.1000 F50.00 
G01 X76.3825 Y11.8390 F100.00 
G01 X76.5022 Y11.8390 
G01 X76.5022 Y11.7358 
G01 X76.4252 Y11.7358 
G01 X75.9942 Y11.3048 
G01 X75.9942 Y11.2278 
G01 X75.8910 Y11.2278 
G01 X75.8910 Y11.3475 
G00 Z2.4000 
G00 X87.6643 Y20.1953 
G01 Z-0.1000 F50.00 
G01 X87.6874 Y20.2511 F100.00 
G01 X87.6874 Y22.5042 
G01 X87.6770 Y22.5293 
G01 X87.6770 Y23.4527 
G01 X88.3173 Y24.0930 
G01 X89.2227 Y24.0930 
G01 X89.8630 Y23.4527 
G01 X89.8630 Y22.5293 
G01 X89.8526 Y22.5042 
G01 X89.8526 Y19.5547 
G01 X89.6878 Y19.1568 
G01 X86.1132 Y15.5822 
G01 X85.7153 Y15.4174 
G01 X72.5758 Y15.4174 
G01 X72.5507 Y15.4070 
G01 X71.6273 Y15.4070 
G01 X70.9870 Y16.0473 
G01 X70.9870 Y16.9527 
G01 X71.6273 Y17.5930 
G01 X72.5507 Y17.5930 
G01 X72.5758 Y17.5826 
G01 X85.0189 Y17.5826 
G01 X85.0746 Y17.6057 
G01 X85.1173 Y17.6483 
G01 X87.6643 Y20.1953 
G00 Z2.4000 
G00 X72.3848 Y17.2358 
G01 Z-0.1000 F50.00 
G01 X71.7752 Y17.2358 F100.00 
G01 X71.3442 Y16.8048 
G01 X71.3442 Y16.1952 
G01 X71.7752 Y15.7642 
G01 X72.3848 Y15.7642 
G01 X72.3952 Y15.7746 
G01 X85.5714 Y15.7746 
G01 X85.7116 Y15.8025 
G01 X85.8436 Y15.8572 
G01 X85.9624 Y15.9365 
G01 X89.3335 Y19.3076 
G01 X89.4128 Y19.4264 
G01 X89.4675 Y19.5584 
G01 X89.4954 Y19.6986 
G01 X89.4954 Y22.6848 
G01 X89.5058 Y22.6952 
G01 X89.5058 Y23.3048 
G01 X89.0748 Y23.7358 
G01 X88.4652 Y23.7358 
G01 X88.0342 Y23.3048 
G01 X88.0342 Y22.6952 
G01 X88.0446 Y22.6848 
G01 X88.0446 Y20.0705 
G01 X85.1995 Y17.2254 
G01 X72.3952 Y17.2254 
G01 X72.3848 Y17.2358 
G00 Z2.4000 
G00 X82.5771 Y52.9942 
G01 Z-0.1000 F50.00 
G01 X83.0822 Y52.9942 F100.00 
G01 X83.0822 Y52.8910 
G01 X82.5670 Y52.8910 
G01 X82.4049 Y52.9232 
G01 X82.2522 Y52.9865 
G01 X82.1148 Y53.0783 
G01 X81.9979 Y53.1952 
G01 X81.9061 Y53.3326 
G01 X81.8428 Y53.4853 
G01 X81.8395 Y53.5022 
G01 X81.9475 Y53.5022 
G01 X81.9975 Y53.3815 
G01 X82.0781 Y53.2610 
G01 X82.1806 Y53.1585 
G01 X82.3011 Y53.0779 
G01 X82.4350 Y53.0225 
G01 X82.5771 Y52.9942 
G00 Z2.4000 
G00 X81.8428 Y53.9747 
G01 Z-0.1000 F50.00 
G01 X81.9061 Y54.1274 F100.00 
G01 X81.9979 Y54.2648 
G01 X82.1148 Y54.3817 
G01 X82.2522 Y54.4735 
G01 X82.4049 Y54.5368 
G01 X82.5670 Y54.5690 
G01 X83.0822 Y54.5690 
G01 X83.0822 Y54.4658 
G01 X82.5771 Y54.4658 
G01 X82.4350 Y54.4375 
G01 X82.3011 Y54.3821 
G01 X82.1806 Y54.3015 
G01 X82.0781 Y54.1990 
G01 X81.9975 Y54.0785 
G01 X81.9475 Y53.9578 
G01 X81.8395 Y53.9578 
G01 X81.8428 Y53.9747 
G00 Z2.4000 
G00 X22.2326 Y49.7640 
G01 Z-0.1000 F50.00 
G01 X22.2006 Y49.6031 F100.00 
G01 X22.1378 Y49.4516 
G01 X22.0467 Y49.3152 
G01 X21.9307 Y49.1993 
G01 X21.7944 Y49.1082 
G01 X21.6429 Y49.0454 
G01 X21.6278 Y49.0424 
G01 X21.6278 Y49.1509 
G01 X21.7455 Y49.1996 
G01 X21.8650 Y49.2794 
G01 X21.9666 Y49.3810 
G01 X22.0464 Y49.5005 
G01 X22.1014 Y49.6332 
G01 X22.1294 Y49.7742 
G01 X22.1294 Y50.2722 
G01 X22.2326 Y50.2722 
G01 X22.2326 Y49.7640 
G00 Z2.4000 
G00 X21.9307 Y51.8007 
G01 Z-0.1000 F50.00 
G01 X22.0467 Y51.6847 F100.00 
G01 X22.1378 Y51.5484 
G01 X22.2006 Y51.3969 
G01 X22.2326 Y51.2360 
G01 X22.2326 Y50.7278 
G01 X22.1294 Y50.7278 
G01 X22.1294 Y51.2258 
G01 X22.1014 Y51.3668 
G01 X22.0464 Y51.4995 
G01 X21.9666 Y51.6190 
G01 X21.8650 Y51.7206 
G01 X21.7455 Y51.8004 
G01 X21.6278 Y51.8491 
G01 X21.6278 Y51.9576 
G01 X21.6429 Y51.9546 
G01 X21.7944 Y51.8918 
G01 X21.9307 Y51.8007 
G00 Z2.4000 
G00 X25.6822 Y43.7132 
G01 Z-0.1000 F50.00 
G01 X26.5822 Y44.6132 F100.00 
G01 X26.8868 Y44.9178 
G01 X27.2847 Y45.0826 
G01 X32.9242 Y45.0826 
G01 X32.9493 Y45.0930 
G01 X33.8727 Y45.0930 
G01 X34.5130 Y44.4527 
G01 X34.5130 Y43.5293 
G01 X34.5026 Y43.5042 
G01 X34.5026 Y40.4958 
G01 X34.5130 Y40.4707 
G01 X34.5130 Y39.5473 
G01 X33.8727 Y38.9070 
G01 X32.9673 Y38.9070 
G01 X32.3270 Y39.5473 
G01 X32.3270 Y40.4707 
G01 X32.3374 Y40.4958 
G01 X32.3374 Y42.7960 
G01 X32.3143 Y42.8517 
G01 X32.2717 Y42.8943 
G01 X32.2160 Y42.9174 
G01 X27.9811 Y42.9174 
G01 X27.9253 Y42.8943 
G01 X27.8827 Y42.8517 
G01 X27.7057 Y42.6746 
G01 X27.6826 Y42.6189 
G01 X27.6826 Y42.4401 
G01 X27.6826 Y42.4103 
G01 X27.6826 Y42.3798 
G01 X27.6866 Y42.3701 
G01 X27.6866 Y40.6299 
G01 X27.5212 Y40.2305 
G01 X27.2155 Y39.9248 
G01 X26.8161 Y39.7594 
G01 X26.3839 Y39.7594 
G01 X25.9845 Y39.9248 
G01 X25.6788 Y40.2305 
G01 X25.5134 Y40.6299 
G01 X25.5134 Y42.3701 
G01 X25.5174 Y42.3798 
G01 X25.5174 Y42.4096 
G01 X25.5174 Y42.4401 
G01 X25.5174 Y43.3153 
G01 X25.6822 Y43.7132 
G00 Z2.4000 
G00 X34.1558 Y39.6952 
G01 Z-0.1000 F50.00 
G01 X34.1558 Y40.3048 F100.00 
G01 X34.1454 Y40.3152 
G01 X34.1454 Y43.6848 
G01 X34.1558 Y43.6952 
G01 X34.1558 Y44.3048 
G01 X33.7248 Y44.7358 
G01 X33.1152 Y44.7358 
G01 X33.1048 Y44.7254 
G01 X27.4286 Y44.7254 
G01 X27.2884 Y44.6975 
G01 X27.1564 Y44.6428 
G01 X27.0376 Y44.5635 
G01 X26.9365 Y44.4624 
G01 X26.0365 Y43.5624 
G01 X25.9572 Y43.4436 
G01 X25.9025 Y43.3116 
G01 X25.8746 Y43.1714 
G01 X25.8746 Y42.2460 
G01 X25.8706 Y42.2258 
G01 X25.8706 Y40.7742 
G01 X25.8986 Y40.6332 
G01 X25.9536 Y40.5005 
G01 X26.0334 Y40.3810 
G01 X26.1350 Y40.2794 
G01 X26.2545 Y40.1996 
G01 X26.3872 Y40.1446 
G01 X26.5282 Y40.1166 
G01 X26.6718 Y40.1166 
G01 X26.8128 Y40.1446 
G01 X26.9455 Y40.1996 
G01 X27.0650 Y40.2794 
G01 X27.1666 Y40.3810 
G01 X27.2464 Y40.5005 
G01 X27.3014 Y40.6332 
G01 X27.3294 Y40.7742 
G01 X27.3294 Y42.2258 
G01 X27.3254 Y42.2460 
G01 X27.3254 Y42.7995 
G01 X27.8005 Y43.2746 
G01 X32.6946 Y43.2746 
G01 X32.6946 Y40.3152 
G01 X32.6842 Y40.3048 
G01 X32.6842 Y39.6952 
G01 X33.1152 Y39.2642 
G01 X33.7248 Y39.2642 
G01 X34.1558 Y39.6952 
G00 Z2.4000 
G00 X25.9845 Y34.5752 
G01 Z-0.1000 F50.00 
G01 X26.0306 Y34.5943 F100.00 
G01 X26.0306 Y34.5943 
G01 X26.0863 Y34.6174 
G01 X26.1266 Y34.6576 
G01 X27.0822 Y35.6132 
G01 X27.3868 Y35.9178 
G01 X27.7847 Y36.0826 
G01 X32.8639 Y36.0826 
G01 X32.8938 Y36.0826 
G01 X32.9242 Y36.0826 
G01 X32.9493 Y36.0930 
G01 X33.8727 Y36.0930 
G01 X34.5130 Y35.4527 
G01 X34.5130 Y34.5293 
G01 X34.5026 Y34.5042 
G01 X34.5026 Y34.4744 
G01 X34.5026 Y34.4439 
G01 X34.5026 Y31.4958 
G01 X34.5130 Y31.4707 
G01 X34.5130 Y30.5473 
G01 X33.8727 Y29.9070 
G01 X32.9673 Y29.9070 
G01 X32.3270 Y30.5473 
G01 X32.3270 Y31.4707 
G01 X32.3374 Y31.4958 
G01 X32.3374 Y33.7960 
G01 X32.3143 Y33.8517 
G01 X32.2717 Y33.8943 
G01 X32.2160 Y33.9174 
G01 X28.4811 Y33.9174 
G01 X28.4253 Y33.8943 
G01 X28.3827 Y33.8517 
G01 X27.7097 Y33.1786 
G01 X27.6866 Y33.1229 
G01 X27.6866 Y32.1299 
G01 X27.5212 Y31.7305 
G01 X27.2155 Y31.4248 
G01 X26.8161 Y31.2594 
G01 X26.3839 Y31.2594 
G01 X25.9845 Y31.4248 
G01 X25.6788 Y31.7305 
G01 X25.5134 Y32.1299 
G01 X25.5134 Y33.8701 
G01 X25.6788 Y34.2695 
G01 X25.9845 Y34.5752 
G00 Z2.4000 
G00 X34.1558 Y30.6952 
G01 Z-0.1000 F50.00 
G01 X34.1558 Y31.3048 F100.00 
G01 X34.1454 Y31.3152 
G01 X34.1454 Y34.6848 
G01 X34.1558 Y34.6952 
G01 X34.1558 Y35.3048 
G01 X33.7248 Y35.7358 
G01 X33.1152 Y35.7358 
G01 X33.1048 Y35.7254 
G01 X27.9286 Y35.7254 
G01 X27.7884 Y35.6975 
G01 X27.6564 Y35.6428 
G01 X27.5376 Y35.5635 
G01 X27.4365 Y35.4624 
G01 X26.2887 Y34.3145 
G01 X26.2545 Y34.3004 
G01 X26.1350 Y34.2206 
G01 X26.0334 Y34.1190 
G01 X25.9536 Y33.9995 
G01 X25.8986 Y33.8668 
G01 X25.8706 Y33.7258 
G01 X25.8706 Y32.2742 
G01 X25.8986 Y32.1332 
G01 X25.9536 Y32.0005 
G01 X26.0334 Y31.8810 
G01 X26.1350 Y31.7794 
G01 X26.2545 Y31.6996 
G01 X26.3872 Y31.6446 
G01 X26.5282 Y31.6166 
G01 X26.6718 Y31.6166 
G01 X26.8128 Y31.6446 
G01 X26.9455 Y31.6996 
G01 X27.0650 Y31.7794 
G01 X27.1666 Y31.8810 
G01 X27.2464 Y32.0005 
G01 X27.3014 Y32.1332 
G01 X27.3294 Y32.2742 
G01 X27.3294 Y33.3035 
G01 X28.3005 Y34.2746 
G01 X32.6946 Y34.2746 
G01 X32.6946 Y31.3152 
G01 X32.6842 Y31.3048 
G01 X32.6842 Y30.6952 
G01 X33.1152 Y30.2642 
G01 X33.7248 Y30.2642 
G01 X34.1558 Y30.6952 
G00 Z2.4000 
G00 X25.4845 Y26.5752 
G01 Z-0.1000 F50.00 
G01 X25.8839 Y26.7406 F100.00 
G01 X26.3161 Y26.7406 
G01 X26.7155 Y26.5752 
G01 X27.0212 Y26.2695 
G01 X27.0714 Y26.1483 
G01 X27.1140 Y26.1057 
G01 X27.1697 Y26.0826 
G01 X28.5189 Y26.0826 
G01 X28.5746 Y26.1057 
G01 X28.6173 Y26.1483 
G01 X29.3868 Y26.9178 
G01 X29.7847 Y27.0826 
G01 X32.8639 Y27.0826 
G01 X32.8938 Y27.0826 
G01 X32.9242 Y27.0826 
G01 X32.9493 Y27.0930 
G01 X33.8727 Y27.0930 
G01 X34.5130 Y26.4527 
G01 X34.5130 Y25.5293 
G01 X34.5026 Y25.5043 
G01 X34.5026 Y25.4744 
G01 X34.5026 Y25.4439 
G01 X34.5026 Y22.5561 
G01 X34.5026 Y22.5262 
G01 X34.5026 Y22.4958 
G01 X34.5130 Y22.4707 
G01 X34.5130 Y21.5473 
G01 X33.8727 Y20.9070 
G01 X32.9673 Y20.9070 
G01 X32.3270 Y21.5473 
G01 X32.3270 Y22.4707 
G01 X32.3374 Y22.4957 
G01 X32.3374 Y22.5256 
G01 X32.3374 Y22.5561 
G01 X32.3374 Y24.7960 
G01 X32.3143 Y24.8517 
G01 X32.2717 Y24.8943 
G01 X32.2160 Y24.9174 
G01 X30.4811 Y24.9174 
G01 X30.4253 Y24.8943 
G01 X30.3827 Y24.8517 
G01 X29.9178 Y24.3868 
G01 X29.6132 Y24.0822 
G01 X29.2153 Y23.9174 
G01 X27.1697 Y23.9174 
G01 X27.1140 Y23.8943 
G01 X27.0714 Y23.8517 
G01 X27.0212 Y23.7305 
G01 X26.7155 Y23.4248 
G01 X26.3161 Y23.2594 
G01 X25.8839 Y23.2594 
G01 X25.4845 Y23.4248 
G01 X25.1788 Y23.7305 
G01 X25.0134 Y24.1299 
G01 X25.0134 Y25.8701 
G01 X25.1788 Y26.2695 
G01 X25.4845 Y26.5752 
G00 Z2.4000 
G00 X34.1558 Y21.6952 
G01 Z-0.1000 F50.00 
G01 X34.1558 Y22.3048 F100.00 
G01 X34.1454 Y22.3152 
G01 X34.1454 Y25.6848 
G01 X34.1558 Y25.6952 
G01 X34.1558 Y26.3048 
G01 X33.7248 Y26.7358 
G01 X33.1152 Y26.7358 
G01 X33.1048 Y26.7254 
G01 X29.9286 Y26.7254 
G01 X29.7884 Y26.6975 
G01 X29.6564 Y26.6428 
G01 X29.5376 Y26.5635 
G01 X28.6995 Y25.7254 
G01 X26.8294 Y25.7254 
G01 X26.8014 Y25.8668 
G01 X26.7464 Y25.9995 
G01 X26.6666 Y26.1190 
G01 X26.5650 Y26.2206 
G01 X26.4455 Y26.3004 
G01 X26.3128 Y26.3554 
G01 X26.1718 Y26.3834 
G01 X26.0282 Y26.3834 
G01 X25.8872 Y26.3554 
G01 X25.7545 Y26.3004 
G01 X25.6350 Y26.2206 
G01 X25.5334 Y26.1190 
G01 X25.4536 Y25.9995 
G01 X25.3986 Y25.8668 
G01 X25.3706 Y25.7258 
G01 X25.3706 Y24.2742 
G01 X25.3986 Y24.1332 
G01 X25.4536 Y24.0005 
G01 X25.5334 Y23.8810 
G01 X25.6350 Y23.7794 
G01 X25.7545 Y23.6996 
G01 X25.8872 Y23.6446 
G01 X26.0282 Y23.6166 
G01 X26.1718 Y23.6166 
G01 X26.3128 Y23.6446 
G01 X26.4455 Y23.6996 
G01 X26.5650 Y23.7794 
G01 X26.6666 Y23.8810 
G01 X26.7464 Y24.0005 
G01 X26.8014 Y24.1332 
G01 X26.8294 Y24.2742 
G01 X29.0714 Y24.2746 
G01 X29.2116 Y24.3025 
G01 X29.3436 Y24.3572 
G01 X29.4624 Y24.4365 
G01 X29.5635 Y24.5376 
G01 X30.3005 Y25.2746 
G01 X32.6946 Y25.2746 
G01 X32.6946 Y22.3152 
G01 X32.6842 Y22.3048 
G01 X32.6842 Y21.6952 
G01 X33.1152 Y21.2642 
G01 X33.7248 Y21.2642 
G01 X34.1558 Y21.6952 
G00 Z2.4000 
G00 X21.1571 Y49.0454 
G01 Z-0.1000 F50.00 
G01 X21.0056 Y49.1082 F100.00 
G01 X20.8693 Y49.1993 
G01 X20.7533 Y49.3152 
G01 X20.6622 Y49.4516 
G01 X20.5994 Y49.6031 
G01 X20.5674 Y49.7640 
G01 X20.5674 Y50.2722 
G01 X20.6706 Y50.2722 
G01 X20.6706 Y49.7742 
G01 X20.6986 Y49.6332 
G01 X20.7536 Y49.5005 
G01 X20.8334 Y49.3810 
G01 X20.9350 Y49.2794 
G01 X21.0545 Y49.1996 
G01 X21.1722 Y49.1509 
G01 X21.1722 Y49.0424 
G01 X21.1571 Y49.0454 
G00 Z2.4000 
G00 X25.0826 Y57.1202 
G01 Z-0.1000 F50.00 
G01 X25.0826 Y55.7847 F100.00 
G01 X24.9178 Y55.3868 
G01 X22.9604 Y53.4294 
G01 X22.9493 Y53.4182 
G01 X22.9178 Y53.3868 
G01 X22.6132 Y53.0822 
G01 X22.2153 Y52.9174 
G01 X20.4811 Y52.9174 
G01 X20.4253 Y52.8943 
G01 X20.3827 Y52.8517 
G01 X19.6057 Y52.0746 
G01 X19.5826 Y52.0189 
G01 X19.5826 Y50.2847 
G01 X19.4178 Y49.8868 
G01 X19.0706 Y49.5396 
G01 X14.6857 Y45.1546 
G01 X14.6626 Y45.0989 
G01 X14.6626 Y43.9268 
G01 X14.6857 Y43.8711 
G01 X14.7283 Y43.8285 
G01 X14.7650 Y43.7918 
G01 X14.9778 Y43.2780 
G01 X14.9778 Y42.8447 
G01 X15.0009 Y42.7889 
G01 X15.0435 Y42.7463 
G01 X15.0992 Y42.7232 
G01 X15.1596 Y42.7232 
G01 X15.2153 Y42.7463 
G01 X15.2579 Y42.7889 
G01 X20.8868 Y48.4178 
G01 X21.2847 Y48.5826 
G01 X22.5189 Y48.5826 
G01 X22.5746 Y48.6057 
G01 X22.6173 Y48.6483 
G01 X22.8943 Y48.9253 
G01 X22.9174 Y48.9811 
G01 X22.9174 Y49.6202 
G01 X22.9134 Y49.6299 
G01 X22.9134 Y51.3701 
G01 X23.0788 Y51.7695 
G01 X23.3845 Y52.0752 
G01 X23.7839 Y52.2406 
G01 X24.2161 Y52.2406 
G01 X24.6155 Y52.0752 
G01 X24.9212 Y51.7695 
G01 X25.0866 Y51.3701 
G01 X25.0866 Y49.6299 
G01 X25.0826 Y49.6202 
G01 X25.0826 Y48.2847 
G01 X24.9178 Y47.8868 
G01 X23.9604 Y46.9294 
G01 X23.6132 Y46.5822 
G01 X23.2153 Y46.4174 
G01 X21.9811 Y46.4174 
G01 X21.9253 Y46.3943 
G01 X21.8827 Y46.3517 
G01 X14.6857 Y39.1546 
G01 X14.6626 Y39.0989 
G01 X14.6626 Y37.9268 
G01 X14.6857 Y37.8711 
G01 X14.7283 Y37.8285 
G01 X14.7650 Y37.7918 
G01 X14.9778 Y37.2780 
G01 X14.9778 Y36.7220 
G01 X14.7650 Y36.2082 
G01 X14.3718 Y35.8150 
G01 X13.8580 Y35.6022 
G01 X13.3020 Y35.6022 
G01 X12.7882 Y35.8150 
G01 X12.3950 Y36.2082 
G01 X12.1822 Y36.7220 
G01 X12.1822 Y37.2780 
G01 X12.3950 Y37.7918 
G01 X12.4743 Y37.8711 
G01 X12.4974 Y37.9268 
G01 X12.4974 Y39.0989 
G01 X12.4743 Y39.1546 
G01 X12.4436 Y39.1854 
G01 X10.5219 Y41.1071 
G01 X10.5100 Y41.1190 
G01 X10.4793 Y41.1497 
G01 X10.4236 Y41.1728 
G01 X10.3632 Y41.1728 
G01 X10.3075 Y41.1497 
G01 X10.2649 Y41.1071 
G01 X10.2418 Y41.0513 
G01 X10.2418 Y34.3219 
G01 X10.2649 Y34.2661 
G01 X10.2956 Y34.2354 
G01 X12.2173 Y32.3137 
G01 X12.2292 Y32.3018 
G01 X12.2599 Y32.2711 
G01 X12.3156 Y32.2480 
G01 X12.3760 Y32.2480 
G01 X12.4317 Y32.2711 
G01 X12.4743 Y32.3137 
G01 X12.4974 Y32.3695 
G01 X12.4974 Y32.7953 
G01 X12.6622 Y33.1932 
G01 X13.0094 Y33.5404 
G01 X18.3868 Y38.9178 
G01 X18.7847 Y39.0826 
G01 X22.0189 Y39.0826 
G01 X22.0746 Y39.1057 
G01 X22.1173 Y39.1483 
G01 X22.8943 Y39.9253 
G01 X22.9174 Y39.9811 
G01 X22.9174 Y40.6202 
G01 X22.9134 Y40.6299 
G01 X22.9134 Y42.3701 
G01 X23.0788 Y42.7695 
G01 X23.3845 Y43.0752 
G01 X23.7839 Y43.2406 
G01 X24.2161 Y43.2406 
G01 X24.6155 Y43.0752 
G01 X24.9212 Y42.7695 
G01 X25.0866 Y42.3701 
G01 X25.0866 Y40.6299 
G01 X25.0826 Y40.6202 
G01 X25.0826 Y39.2847 
G01 X24.9178 Y38.8868 
G01 X23.1132 Y37.0822 
G01 X22.7153 Y36.9174 
G01 X19.4811 Y36.9174 
G01 X19.4253 Y36.8943 
G01 X19.3827 Y36.8517 
G01 X14.6857 Y32.1546 
G01 X14.6626 Y32.0989 
G01 X14.6626 Y31.9268 
G01 X14.6857 Y31.8711 
G01 X14.7283 Y31.8285 
G01 X14.7650 Y31.7918 
G01 X14.9778 Y31.2780 
G01 X14.9778 Y30.7220 
G01 X14.7650 Y30.2082 
G01 X14.3718 Y29.8150 
G01 X13.8580 Y29.6022 
G01 X13.3020 Y29.6022 
G01 X12.7882 Y29.8150 
G01 X12.7089 Y29.8943 
G01 X12.6532 Y29.9174 
G01 X11.7847 Y29.9174 
G01 X11.3868 Y30.0822 
G01 X8.7139 Y32.7551 
G01 X8.6713 Y32.7977 
G01 X8.6156 Y32.8208 
G01 X8.5552 Y32.8208 
G01 X8.4995 Y32.7977 
G01 X8.4569 Y32.7551 
G01 X8.4338 Y32.6993 
G01 X8.4338 Y29.6299 
G01 X8.4569 Y29.5741 
G01 X8.4995 Y29.5315 
G01 X11.9253 Y26.1057 
G01 X11.9811 Y26.0826 
G01 X12.6532 Y26.0826 
G01 X12.6756 Y26.0919 
G01 X12.7089 Y26.1057 
G01 X12.7515 Y26.1483 
G01 X12.7882 Y26.1850 
G01 X13.3020 Y26.3978 
G01 X13.8580 Y26.3978 
G01 X14.3718 Y26.1850 
G01 X14.4511 Y26.1057 
G01 X14.5068 Y26.0826 
G01 X15.5189 Y26.0826 
G01 X15.5746 Y26.1057 
G01 X15.6173 Y26.1483 
G01 X15.8943 Y26.4253 
G01 X15.9174 Y26.4811 
G01 X15.9174 Y27.2153 
G01 X16.0822 Y27.6132 
G01 X17.5822 Y29.1132 
G01 X17.8868 Y29.4178 
G01 X18.2847 Y29.5826 
G01 X21.0189 Y29.5826 
G01 X21.0747 Y29.6057 
G01 X21.1173 Y29.6483 
G01 X22.8943 Y31.4253 
G01 X22.9174 Y31.4811 
G01 X22.9174 Y32.1202 
G01 X22.9134 Y32.1299 
G01 X22.9134 Y33.8701 
G01 X23.0788 Y34.2695 
G01 X23.3845 Y34.5752 
G01 X23.7839 Y34.7406 
G01 X24.2161 Y34.7406 
G01 X24.6155 Y34.5752 
G01 X24.9212 Y34.2695 
G01 X25.0866 Y33.8701 
G01 X25.0866 Y32.1299 
G01 X25.0826 Y32.1202 
G01 X25.0826 Y30.7847 
G01 X24.9178 Y30.3868 
G01 X22.4604 Y27.9294 
G01 X22.4570 Y27.9259 
G01 X22.4178 Y27.8868 
G01 X22.1132 Y27.5822 
G01 X21.7153 Y27.4174 
G01 X18.9811 Y27.4174 
G01 X18.9253 Y27.3943 
G01 X18.8827 Y27.3517 
G01 X18.1057 Y26.5746 
G01 X18.0826 Y26.5189 
G01 X18.0826 Y25.7847 
G01 X17.9178 Y25.3868 
G01 X17.5706 Y25.0396 
G01 X16.6132 Y24.0822 
G01 X16.2153 Y23.9174 
G01 X14.5068 Y23.9174 
G01 X14.4511 Y23.8943 
G01 X14.4085 Y23.8517 
G01 X14.3718 Y23.8150 
G01 X13.8580 Y23.6022 
G01 X13.3020 Y23.6022 
G01 X12.7882 Y23.8150 
G01 X12.7515 Y23.8517 
G01 X12.7089 Y23.8943 
G01 X12.6532 Y23.9174 
G01 X11.2847 Y23.9174 
G01 X10.8868 Y24.0822 
G01 X6.8633 Y28.1057 
G01 X6.8075 Y28.1288 
G01 X6.7472 Y28.1288 
G01 X6.6915 Y28.1057 
G01 X6.6489 Y28.0631 
G01 X6.6258 Y28.0073 
G01 X6.6258 Y22.4379 
G01 X6.6489 Y22.3821 
G01 X6.6915 Y22.3395 
G01 X8.9253 Y20.1057 
G01 X8.9811 Y20.0826 
G01 X12.6532 Y20.0826 
G01 X12.6756 Y20.0919 
G01 X12.7089 Y20.1057 
G01 X12.7515 Y20.1483 
G01 X12.7882 Y20.1850 
G01 X13.3020 Y20.3978 
G01 X13.8580 Y20.3978 
G01 X14.3718 Y20.1850 
G01 X14.7650 Y19.7918 
G01 X14.9778 Y19.2780 
G01 X14.9778 Y18.7220 
G01 X14.7650 Y18.2082 
G01 X14.7283 Y18.1715 
G01 X14.6866 Y18.1298 
G01 X14.6724 Y18.0969 
G01 X14.6626 Y18.0732 
G01 X14.6626 Y17.4011 
G01 X14.6857 Y17.3453 
G01 X14.7283 Y17.3027 
G01 X15.6513 Y16.3797 
G01 X15.7071 Y16.3566 
G01 X17.8589 Y16.3566 
G01 X17.9131 Y16.3790 
G01 X17.9573 Y16.4223 
G01 X17.9804 Y16.4780 
G01 X17.9804 Y16.5384 
G01 X17.9580 Y16.5925 
G01 X17.9146 Y16.6367 
G01 X17.4169 Y17.1344 
G01 X17.0298 Y17.8050 
G01 X16.8294 Y18.5529 
G01 X16.8294 Y19.3271 
G01 X17.0298 Y20.0750 
G01 X17.4169 Y20.7456 
G01 X17.9644 Y21.2931 
G01 X18.6350 Y21.6802 
G01 X19.3829 Y21.8806 
G01 X20.1571 Y21.8806 
G01 X20.9050 Y21.6802 
G01 X21.5756 Y21.2931 
G01 X22.0733 Y20.7954 
G01 X22.1071 Y20.7616 
G01 X22.1159 Y20.7527 
G01 X22.1716 Y20.7296 
G01 X22.2320 Y20.7296 
G01 X22.2877 Y20.7527 
G01 X22.3303 Y20.7953 
G01 X22.3534 Y20.8511 
G01 X22.3534 Y25.1513 
G01 X22.3903 Y25.2405 
G01 X22.4125 Y25.2940 
G01 X22.4134 Y25.8701 
G01 X22.5788 Y26.2695 
G01 X22.8845 Y26.5752 
G01 X23.2839 Y26.7406 
G01 X23.7161 Y26.7406 
G01 X24.1155 Y26.5752 
G01 X24.4212 Y26.2695 
G01 X24.5866 Y25.8701 
G01 X24.5866 Y24.1299 
G01 X24.5417 Y24.0214 
G01 X24.5325 Y23.9992 
G01 X24.5186 Y23.9657 
G01 X24.5186 Y17.2061 
G01 X24.3538 Y16.8082 
G01 X24.0066 Y16.4611 
G01 X22.2063 Y14.6608 
G01 X21.9018 Y14.3562 
G01 X21.5039 Y14.1914 
G01 X15.0107 Y14.1914 
G01 X14.6128 Y14.3562 
G01 X14.2656 Y14.7034 
G01 X12.6622 Y16.3068 
G01 X12.4974 Y16.7047 
G01 X12.4974 Y17.7960 
G01 X12.4743 Y17.8517 
G01 X12.4317 Y17.8943 
G01 X12.3760 Y17.9174 
G01 X8.2847 Y17.9174 
G01 X7.8868 Y18.0822 
G01 X7.5396 Y18.4294 
G01 X4.9690 Y20.9999 
G01 X4.7827 Y21.1863 
G01 X4.7437 Y21.2253 
G01 X4.7401 Y21.2289 
G01 X4.7081 Y21.2421 
G01 X4.6844 Y21.2520 
G01 X4.6240 Y21.2520 
G01 X4.5683 Y21.2289 
G01 X4.5257 Y21.1863 
G01 X4.5124 Y21.1543 
G01 X4.5026 Y21.1305 
G01 X4.5026 Y19.9268 
G01 X4.5119 Y19.9044 
G01 X4.5257 Y19.8711 
G01 X4.5683 Y19.8285 
G01 X4.6050 Y19.7918 
G01 X4.8178 Y19.2780 
G01 X4.8178 Y18.7220 
G01 X4.6050 Y18.2082 
G01 X4.2118 Y17.8150 
G01 X3.6980 Y17.6022 
G01 X3.1420 Y17.6022 
G01 X2.6282 Y17.8150 
G01 X2.2350 Y18.2082 
G01 X2.0222 Y18.7220 
G01 X2.0222 Y19.2780 
G01 X2.2350 Y19.7918 
G01 X2.2717 Y19.8285 
G01 X2.3134 Y19.8702 
G01 X2.3276 Y19.9031 
G01 X2.3374 Y19.9268 
G01 X2.3374 Y24.0732 
G01 X2.3281 Y24.0956 
G01 X2.3143 Y24.1289 
G01 X2.2717 Y24.1715 
G01 X2.2350 Y24.2082 
G01 X2.0222 Y24.7220 
G01 X2.0222 Y25.2780 
G01 X2.2350 Y25.7918 
G01 X2.2717 Y25.8285 
G01 X2.3134 Y25.8702 
G01 X2.3276 Y25.9031 
G01 X2.3374 Y25.9268 
G01 X2.3374 Y30.0732 
G01 X2.3143 Y30.1289 
G01 X2.2717 Y30.1715 
G01 X2.2350 Y30.2082 
G01 X2.0222 Y30.7220 
G01 X2.0222 Y31.2780 
G01 X2.2350 Y31.7918 
G01 X2.3143 Y31.8711 
G01 X2.3374 Y31.9268 
G01 X2.3374 Y36.0732 
G01 X2.3143 Y36.1289 
G01 X2.2717 Y36.1715 
G01 X2.2350 Y36.2082 
G01 X2.0222 Y36.7220 
G01 X2.0222 Y37.2780 
G01 X2.2350 Y37.7918 
G01 X2.3143 Y37.8711 
G01 X2.3374 Y37.9268 
G01 X2.3374 Y42.0732 
G01 X2.3281 Y42.0956 
G01 X2.3143 Y42.1289 
G01 X2.2717 Y42.1715 
G01 X2.2350 Y42.2082 
G01 X2.0222 Y42.7220 
G01 X2.0222 Y43.2799 
G01 X1.9991 Y43.3356 
G01 X1.9565 Y43.3783 
G01 X1.8779 Y43.4568 
G01 X1.8564 Y43.4783 
G01 X1.8355 Y43.4992 
G01 X1.7058 Y43.6275 
G01 X1.7045 Y43.6302 
G01 X1.6326 Y43.8011 
G01 X1.6212 Y43.8285 
G01 X1.6097 Y43.8564 
G01 X1.5389 Y44.0245 
G01 X1.5389 Y44.0272 
G01 X1.5378 Y44.0304 
G01 X1.5378 Y44.2129 
G01 X1.5378 Y44.2428 
G01 X1.5378 Y44.2728 
G01 X1.4182 Y68.8343 
G01 X1.4209 Y68.8526 
G01 X1.4180 Y68.8641 
G01 X1.4180 Y68.8760 
G01 X1.4108 Y68.8931 
G01 X1.3975 Y68.9463 
G01 X1.4126 Y69.0479 
G01 X1.4171 Y69.0589 
G01 X1.4170 Y69.0775 
G01 X1.4197 Y69.0959 
G01 X1.4169 Y69.1074 
G01 X1.4164 Y69.2101 
G01 X1.4371 Y69.2609 
G01 X1.4467 Y69.2768 
G01 X1.4484 Y69.2885 
G01 X1.4529 Y69.2995 
G01 X1.4528 Y69.3181 
G01 X1.4609 Y69.3723 
G01 X1.5137 Y69.4604 
G01 X1.5221 Y69.4688 
G01 X1.5291 Y69.4860 
G01 X1.5387 Y69.5020 
G01 X1.5404 Y69.5137 
G01 X1.5792 Y69.6088 
G01 X1.6178 Y69.6478 
G01 X1.6328 Y69.6588 
G01 X1.6389 Y69.6690 
G01 X1.6472 Y69.6774 
G01 X1.6542 Y69.6946 
G01 X4.4594 Y74.3698 
G01 X4.4741 Y74.3919 
G01 X4.4748 Y74.3956 
G01 X4.4768 Y74.3988 
G01 X4.4803 Y74.4224 
G01 X4.5685 Y74.5545 
G01 X4.5715 Y74.5567 
G01 X4.5851 Y74.5794 
G01 X4.5998 Y74.6014 
G01 X4.6006 Y74.6052 
G01 X4.6823 Y74.7414 
G01 X4.7021 Y74.7546 
G01 X4.7042 Y74.7578 
G01 X4.7073 Y74.7600 
G01 X4.7195 Y74.7805 
G01 X4.8516 Y74.8687 
G01 X4.8552 Y74.8697 
G01 X4.8765 Y74.8854 
G01 X4.8985 Y74.9001 
G01 X4.9006 Y74.9033 
G01 X5.0282 Y74.9978 
G01 X5.0516 Y75.0025 
G01 X5.0548 Y75.0046 
G01 X5.0585 Y75.0055 
G01 X5.0776 Y75.0197 
G01 X5.2334 Y75.0508 
G01 X5.2371 Y75.0502 
G01 X5.2628 Y75.0566 
G01 X5.2888 Y75.0618 
G01 X5.2920 Y75.0639 
G01 X5.4460 Y75.1024 
G01 X5.4694 Y75.0978 
G01 X5.4731 Y75.0985 
G01 X5.4769 Y75.0980 
G01 X5.5026 Y75.1044 
G01 X6.1343 Y75.2302 
G01 X6.1495 Y75.2302 
G01 X6.1636 Y75.2361 
G01 X6.1785 Y75.2390 
G01 X6.1912 Y75.2475 
G01 X6.2052 Y75.2533 
G01 X6.2160 Y75.2641 
G01 X6.2287 Y75.2726 
G01 X6.2371 Y75.2852 
G01 X6.2479 Y75.2959 
G01 X6.2537 Y75.3100 
G01 X6.2622 Y75.3227 
G01 X6.2651 Y75.3376 
G01 X6.3716 Y75.5947 
G01 X6.9153 Y76.1384 
G01 X7.0804 Y76.2068 
G01 X7.0871 Y76.2095 
G01 X7.1362 Y76.2299 
G01 X7.1788 Y76.2725 
G01 X7.2019 Y76.3282 
G01 X7.2019 Y76.3886 
G01 X7.1926 Y76.4110 
G01 X7.1788 Y76.4443 
G01 X7.1362 Y76.4869 
G01 X6.7514 Y76.6463 
G01 X6.1363 Y77.2614 
G01 X5.8034 Y78.0651 
G01 X5.8034 Y78.9349 
G01 X6.1363 Y79.7386 
G01 X6.7514 Y80.3537 
G01 X6.7580 Y80.3564 
G01 X6.8043 Y80.3756 
G01 X6.8183 Y80.3896 
G01 X6.8469 Y80.4183 
G01 X6.8546 Y80.4367 
G01 X6.8700 Y80.4740 
G01 X6.8700 Y80.5038 
G01 X6.8700 Y80.5343 
G01 X6.8626 Y80.5523 
G01 X6.8469 Y80.5900 
G01 X6.8329 Y80.6040 
G01 X6.8043 Y80.6327 
G01 X6.7897 Y80.6387 
G01 X6.7714 Y80.6463 
G01 X6.1563 Y81.2614 
G01 X5.8234 Y82.0651 
G01 X5.8234 Y82.9349 
G01 X6.1563 Y83.7386 
G01 X6.7714 Y84.3537 
G01 X6.7921 Y84.3623 
G01 X6.8093 Y84.3694 
G01 X6.8303 Y84.3904 
G01 X6.8519 Y84.4121 
G01 X6.8591 Y84.4293 
G01 X6.8750 Y84.4678 
G01 X6.8750 Y84.5281 
G01 X6.8593 Y84.5661 
G01 X6.8519 Y84.5838 
G01 X6.8309 Y84.6048 
G01 X6.8093 Y84.6264 
G01 X6.7907 Y84.6341 
G01 X6.7614 Y84.6463 
G01 X6.1463 Y85.2614 
G01 X5.8134 Y86.0651 
G01 X5.8134 Y86.9349 
G01 X6.1463 Y87.7386 
G01 X6.7614 Y88.3537 
G01 X6.7671 Y88.3561 
G01 X6.8043 Y88.3715 
G01 X6.8253 Y88.3925 
G01 X6.8469 Y88.4141 
G01 X6.8591 Y88.4435 
G01 X6.8700 Y88.4698 
G01 X6.8700 Y88.4997 
G01 X6.8700 Y88.5301 
G01 X6.8626 Y88.5481 
G01 X6.8469 Y88.5859 
G01 X6.8260 Y88.6069 
G01 X6.8043 Y88.6285 
G01 X6.7727 Y88.6416 
G01 X6.7614 Y88.6463 
G01 X6.1463 Y89.2614 
G01 X5.8134 Y90.0651 
G01 X5.8134 Y90.9349 
G01 X6.1463 Y91.7386 
G01 X6.7614 Y92.3537 
G01 X7.5651 Y92.6866 
G01 X11.4349 Y92.6866 
G01 X12.2386 Y92.3537 
G01 X12.8715 Y91.7208 
G01 X12.9031 Y91.6893 
G01 X12.9141 Y91.6782 
G01 X12.9698 Y91.6551 
G01 X13.0302 Y91.6551 
G01 X13.0859 Y91.6782 
G01 X13.1285 Y91.7208 
G01 X16.7903 Y95.3826 
G01 X16.8134 Y95.4384 
G01 X16.8134 Y97.9349 
G01 X17.1463 Y98.7386 
G01 X20.5714 Y102.1637 
G01 X21.3751 Y102.4966 
G01 X41.1249 Y102.4966 
G01 X41.9286 Y102.1637 
G01 X48.2386 Y95.8537 
G01 X48.8537 Y95.2386 
G01 X49.1866 Y94.4349 
G01 X49.1866 Y86.7651 
G01 X48.8537 Y85.9614 
G01 X48.0386 Y85.1463 
G01 X47.2349 Y84.8134 
G01 X46.3651 Y84.8134 
G01 X45.5614 Y85.1463 
G01 X44.9463 Y85.7614 
G01 X44.6134 Y86.5651 
G01 X44.6134 Y87.4349 
G01 X44.7903 Y87.8621 
G01 X44.7918 Y87.8656 
G01 X44.8134 Y87.9178 
G01 X44.8134 Y93.0616 
G01 X44.7903 Y93.1174 
G01 X44.7477 Y93.1600 
G01 X39.8074 Y98.1003 
G01 X39.7516 Y98.1234 
G01 X22.7484 Y98.1234 
G01 X22.6926 Y98.1003 
G01 X22.6500 Y98.0577 
G01 X21.2097 Y96.6174 
G01 X21.1866 Y96.5616 
G01 X21.1866 Y94.0651 
G01 X20.8537 Y93.2614 
G01 X20.1960 Y92.6036 
G01 X15.2097 Y87.6174 
G01 X15.1866 Y87.5616 
G01 X15.1866 Y85.9384 
G01 X15.2097 Y85.8826 
G01 X15.2523 Y85.8400 
G01 X17.8826 Y83.2097 
G01 X17.9384 Y83.1866 
G01 X20.5449 Y83.1866 
G01 X21.3486 Y82.8537 
G01 X21.9637 Y82.2386 
G01 X22.2966 Y81.4349 
G01 X22.2966 Y80.5651 
G01 X21.9637 Y79.7614 
G01 X21.3486 Y79.1463 
G01 X20.5449 Y78.8134 
G01 X16.7266 Y78.8134 
G01 X16.6724 Y78.7910 
G01 X16.6282 Y78.7477 
G01 X16.6051 Y78.6920 
G01 X16.6051 Y78.6316 
G01 X16.6238 Y78.5865 
G01 X16.6282 Y78.5759 
G01 X16.6866 Y78.4349 
G01 X16.6866 Y77.4384 
G01 X16.7097 Y77.3826 
G01 X16.7523 Y77.3400 
G01 X18.8826 Y75.2097 
G01 X18.9384 Y75.1866 
G01 X19.1716 Y75.1866 
G01 X19.2274 Y75.2097 
G01 X19.2700 Y75.2523 
G01 X26.9082 Y82.8905 
G01 X29.5842 Y85.5665 
G01 X29.6268 Y85.6091 
G01 X29.6499 Y85.6648 
G01 X29.6499 Y85.7251 
G01 X29.6268 Y85.7809 
G01 X29.5842 Y85.8235 
G01 X26.9083 Y88.4994 
G01 X26.5754 Y89.3031 
G01 X26.5754 Y92.3439 
G01 X26.5549 Y92.3933 
G01 X26.5523 Y92.3996 
G01 X26.5514 Y92.9781 
G01 X26.5537 Y92.9838 
G01 X26.5754 Y93.0361 
G01 X26.5754 Y93.1249 
G01 X26.9083 Y93.9286 
G01 X27.5234 Y94.5437 
G01 X28.3271 Y94.8766 
G01 X29.1969 Y94.8766 
G01 X30.0006 Y94.5437 
G01 X30.6157 Y93.9286 
G01 X30.9486 Y93.1249 
G01 X30.9486 Y93.0361 
G01 X30.9691 Y92.9867 
G01 X30.9717 Y92.9804 
G01 X30.9726 Y92.4019 
G01 X30.9703 Y92.3962 
G01 X30.9486 Y92.3439 
G01 X30.9486 Y90.6764 
G01 X30.9717 Y90.6206 
G01 X31.0143 Y90.5780 
G01 X32.3826 Y89.2097 
G01 X32.4384 Y89.1866 
G01 X42.2349 Y89.1866 
G01 X43.0386 Y88.8537 
G01 X43.6537 Y88.2386 
G01 X43.9866 Y87.4349 
G01 X43.9866 Y86.5651 
G01 X43.6537 Y85.7614 
G01 X43.0386 Y85.1463 
G01 X42.2349 Y84.8134 
G01 X35.0484 Y84.8134 
G01 X34.9926 Y84.7903 
G01 X34.9500 Y84.7477 
G01 X29.9580 Y79.7556 
G01 X21.3486 Y71.1463 
G01 X20.5449 Y70.8134 
G01 X17.5651 Y70.8134 
G01 X16.7614 Y71.1463 
G01 X16.1036 Y71.8040 
G01 X12.6463 Y75.2614 
G01 X12.3134 Y76.0651 
G01 X12.3134 Y77.0616 
G01 X12.2903 Y77.1174 
G01 X10.4567 Y78.9510 
G01 X10.4430 Y78.9647 
G01 X10.4141 Y78.9936 
G01 X10.3583 Y79.0167 
G01 X10.2980 Y79.0167 
G01 X10.2423 Y78.9936 
G01 X10.1997 Y78.9510 
G01 X10.1766 Y78.8952 
G01 X10.1766 Y78.0651 
G01 X9.8437 Y77.2614 
G01 X9.2286 Y76.6463 
G01 X8.8638 Y76.4952 
G01 X8.8212 Y76.4526 
G01 X8.8079 Y76.4206 
G01 X8.7981 Y76.3968 
G01 X8.7981 Y76.3365 
G01 X8.8212 Y76.2808 
G01 X8.8638 Y76.2382 
G01 X8.9119 Y76.2182 
G01 X8.9196 Y76.2151 
G01 X9.1047 Y76.1384 
G01 X9.6374 Y75.6057 
G01 X9.6931 Y75.5826 
G01 X11.2153 Y75.5826 
G01 X11.6132 Y75.4178 
G01 X18.4253 Y68.6057 
G01 X18.4811 Y68.5826 
G01 X24.2960 Y68.5826 
G01 X24.3517 Y68.6057 
G01 X24.3943 Y68.6483 
G01 X24.4174 Y68.7040 
G01 X24.4174 Y70.2153 
G01 X24.5822 Y70.6132 
G01 X32.0822 Y78.1132 
G01 X32.3868 Y78.4178 
G01 X32.7847 Y78.5826 
G01 X45.0189 Y78.5826 
G01 X45.0746 Y78.6057 
G01 X45.1155 Y78.6466 
G01 X47.6863 Y81.2173 
G01 X47.7289 Y81.2599 
G01 X47.7520 Y81.3156 
G01 X47.7520 Y81.3760 
G01 X47.7289 Y81.4317 
G01 X47.6863 Y81.4743 
G01 X47.6305 Y81.4974 
G01 X45.0885 Y81.4974 
G01 X45.0328 Y81.4743 
G01 X44.9901 Y81.4317 
G01 X44.6263 Y81.0679 
G01 X43.3737 Y81.0679 
G01 X43.0472 Y81.3943 
G01 X42.9915 Y81.4174 
G01 X41.4811 Y81.4174 
G01 X41.4253 Y81.3943 
G01 X41.3827 Y81.3517 
G01 X40.1132 Y80.0822 
G01 X39.7153 Y79.9174 
G01 X38.5295 Y79.9174 
G01 X38.5070 Y79.9081 
G01 X38.4737 Y79.8943 
G01 X38.4311 Y79.8517 
G01 X38.3848 Y79.8054 
G01 X37.3952 Y79.8054 
G01 X36.6954 Y80.5052 
G01 X36.6954 Y81.4948 
G01 X37.3952 Y82.1946 
G01 X38.3848 Y82.1946 
G01 X38.4311 Y82.1483 
G01 X38.4714 Y82.1081 
G01 X38.5057 Y82.0924 
G01 X38.5295 Y82.0826 
G01 X39.0189 Y82.0826 
G01 X39.0746 Y82.1057 
G01 X39.1173 Y82.1483 
G01 X40.0822 Y83.1132 
G01 X40.3867 Y83.4178 
G01 X40.7847 Y83.5826 
G01 X42.8315 Y83.5826 
G01 X42.8872 Y83.6057 
G01 X42.9299 Y83.6483 
G01 X43.3737 Y84.0921 
G01 X44.6263 Y84.0921 
G01 X45.0328 Y83.6857 
G01 X45.0885 Y83.6626 
G01 X47.5989 Y83.6626 
G01 X47.6546 Y83.6857 
G01 X47.6973 Y83.7283 
G01 X47.8868 Y83.9178 
G01 X48.2847 Y84.0826 
G01 X52.2153 Y84.0826 
G01 X52.3914 Y84.0097 
G01 X52.4450 Y83.9875 
G01 X52.7502 Y83.9866 
G01 X53.1129 Y83.8364 
G01 X53.3904 Y83.5589 
G01 X53.5406 Y83.1962 
G01 X53.5406 Y82.8038 
G01 X53.3904 Y82.4411 
G01 X53.1129 Y82.1636 
G01 X52.7502 Y82.0134 
G01 X52.4471 Y82.0134 
G01 X52.3914 Y81.9903 
G01 X52.2153 Y81.9174 
G01 X48.9811 Y81.9174 
G01 X48.9343 Y81.8980 
G01 X48.9254 Y81.8943 
G01 X48.8937 Y81.8627 
G01 X48.8517 Y81.8206 
G01 X48.8400 Y81.7933 
G01 X48.8280 Y81.7644 
G01 X48.8280 Y81.7040 
G01 X48.8469 Y81.6586 
G01 X48.8511 Y81.6483 
G01 X48.8931 Y81.6063 
G01 X48.9205 Y81.5946 
G01 X48.9494 Y81.5826 
G01 X55.7153 Y81.5826 
G01 X56.1132 Y81.4178 
G01 X58.4253 Y79.1057 
G01 X58.4811 Y79.0826 
G01 X60.8153 Y79.0826 
G01 X60.9914 Y79.0097 
G01 X61.0450 Y78.9875 
G01 X61.3502 Y78.9866 
G01 X61.7129 Y78.8364 
G01 X61.9904 Y78.5589 
G01 X62.1406 Y78.1962 
G01 X62.1406 Y77.8038 
G01 X61.9904 Y77.4411 
G01 X61.7129 Y77.1636 
G01 X61.3502 Y77.0134 
G01 X61.0471 Y77.0134 
G01 X60.8153 Y76.9174 
G01 X57.7847 Y76.9174 
G01 X57.3868 Y77.0822 
G01 X57.0396 Y77.4294 
G01 X55.0746 Y79.3943 
G01 X55.0189 Y79.4174 
G01 X48.9811 Y79.4174 
G01 X48.9253 Y79.3943 
G01 X48.8827 Y79.3517 
G01 X46.1132 Y76.5822 
G01 X45.7153 Y76.4174 
G01 X33.4811 Y76.4174 
G01 X33.4253 Y76.3943 
G01 X33.3827 Y76.3517 
G01 X26.6057 Y69.5746 
G01 X26.5826 Y69.5189 
G01 X26.5826 Y67.2847 
G01 X26.4178 Y66.8868 
G01 X26.1132 Y66.5822 
G01 X25.7153 Y66.4174 
G01 X17.7847 Y66.4174 
G01 X17.3868 Y66.5822 
G01 X10.5746 Y73.3943 
G01 X10.5189 Y73.4174 
G01 X9.6931 Y73.4174 
G01 X9.6374 Y73.3943 
G01 X9.5948 Y73.3517 
G01 X9.1047 Y72.8616 
G01 X8.5927 Y72.6495 
G01 X8.5428 Y72.6289 
G01 X8.5370 Y72.6264 
G01 X8.4943 Y72.5838 
G01 X8.4712 Y72.5281 
G01 X8.4712 Y72.4678 
G01 X8.4937 Y72.4136 
G01 X8.5370 Y72.3694 
G01 X8.5927 Y72.3463 
G01 X9.0947 Y72.1384 
G01 X9.6274 Y71.6057 
G01 X9.6831 Y71.5826 
G01 X11.2153 Y71.5826 
G01 X11.6132 Y71.4178 
G01 X18.9253 Y64.1057 
G01 X18.9811 Y64.0826 
G01 X22.2153 Y64.0826 
G01 X22.6132 Y63.9178 
G01 X22.9178 Y63.6132 
G01 X22.9604 Y63.5706 
G01 X24.6132 Y61.9178 
G01 X24.9178 Y61.6132 
G01 X25.0826 Y61.2153 
G01 X25.0826 Y58.8798 
G01 X25.0866 Y58.8701 
G01 X25.0866 Y57.1299 
G01 X25.0826 Y57.1202 
G00 Z2.4000 
G00 X19.0714 Y38.7254 
G01 Z-0.1000 F50.00 
G01 X18.9286 Y38.7254 F100.00 
G01 X18.7884 Y38.6975 
G01 X18.6564 Y38.6428 
G01 X18.5376 Y38.5635 
G01 X13.1176 Y33.1435 
G01 X13.0165 Y33.0424 
G01 X12.9372 Y32.9236 
G01 X12.8825 Y32.7916 
G01 X12.8546 Y32.6514 
G01 X12.8546 Y31.7462 
G01 X12.8338 Y31.7254 
G01 X12.3005 Y31.7254 
G01 X9.8846 Y34.1413 
G01 X9.8846 Y45.7765 
G01 X9.8895 Y45.7884 
G01 X9.9174 Y45.9286 
G01 X9.9174 Y47.4484 
G01 X13.5635 Y51.0945 
G01 X13.6428 Y51.2133 
G01 X13.6975 Y51.3453 
G01 X13.7254 Y51.4855 
G01 X13.7254 Y60.5714 
G01 X13.6975 Y60.7116 
G01 X13.6428 Y60.8436 
G01 X13.5635 Y60.9624 
G01 X13.4624 Y61.0635 
G01 X11.4624 Y63.0635 
G01 X11.3436 Y63.1428 
G01 X11.2116 Y63.1975 
G01 X11.0714 Y63.2254 
G01 X9.3985 Y63.2254 
G01 X9.3474 Y63.3257 
G01 X9.2016 Y63.5263 
G01 X9.0263 Y63.7016 
G01 X8.8257 Y63.8474 
G01 X8.6047 Y63.9600 
G01 X8.3689 Y64.0366 
G01 X8.1240 Y64.0754 
G01 X7.8760 Y64.0754 
G01 X7.6311 Y64.0366 
G01 X7.3953 Y63.9600 
G01 X7.1743 Y63.8474 
G01 X6.9737 Y63.7016 
G01 X6.7984 Y63.5263 
G01 X6.6526 Y63.3257 
G01 X6.5400 Y63.1047 
G01 X6.4634 Y62.8689 
G01 X6.4246 Y62.6240 
G01 X6.4246 Y62.3760 
G01 X6.4634 Y62.1311 
G01 X6.5400 Y61.8953 
G01 X6.6526 Y61.6743 
G01 X6.7984 Y61.4737 
G01 X6.9737 Y61.2984 
G01 X7.1743 Y61.1526 
G01 X7.3953 Y61.0400 
G01 X7.6311 Y60.9634 
G01 X7.8760 Y60.9246 
G01 X8.1240 Y60.9246 
G01 X8.3689 Y60.9634 
G01 X8.6047 Y61.0400 
G01 X8.8257 Y61.1526 
G01 X9.0263 Y61.2984 
G01 X9.2016 Y61.4737 
G01 X9.3474 Y61.6743 
G01 X9.3985 Y61.7746 
G01 X10.6995 Y61.7746 
G01 X12.2746 Y60.1995 
G01 X12.2746 Y51.8574 
G01 X8.7296 Y48.3124 
G01 X8.6285 Y48.2113 
G01 X8.5492 Y48.0925 
G01 X8.4945 Y47.9605 
G01 X8.4666 Y47.8203 
G01 X8.4666 Y46.3827 
G01 X8.4617 Y46.3708 
G01 X8.4338 Y46.2306 
G01 X8.4338 Y33.7694 
G01 X8.4617 Y33.6292 
G01 X8.5164 Y33.4972 
G01 X8.5957 Y33.3784 
G01 X8.6968 Y33.2773 
G01 X11.5376 Y30.4365 
G01 X11.6564 Y30.3572 
G01 X11.7884 Y30.3025 
G01 X11.9286 Y30.2746 
G01 X12.8338 Y30.2746 
G01 X12.9021 Y30.2063 
G01 X13.0346 Y30.1100 
G01 X13.1805 Y30.0356 
G01 X13.3363 Y29.9850 
G01 X13.4981 Y29.9594 
G01 X13.6619 Y29.9594 
G01 X13.8237 Y29.9850 
G01 X13.9794 Y30.0356 
G01 X14.1254 Y30.1100 
G01 X14.2579 Y30.2063 
G01 X14.3737 Y30.3221 
G01 X14.4700 Y30.4546 
G01 X14.5444 Y30.6005 
G01 X14.5950 Y30.7563 
G01 X14.6206 Y30.9181 
G01 X14.6206 Y31.0819 
G01 X14.5950 Y31.2437 
G01 X14.5444 Y31.3995 
G01 X14.4700 Y31.5454 
G01 X14.3737 Y31.6779 
G01 X14.3054 Y31.7462 
G01 X14.3054 Y32.2795 
G01 X19.3005 Y37.2746 
G01 X22.5714 Y37.2746 
G01 X22.7116 Y37.3025 
G01 X22.8436 Y37.3572 
G01 X22.9624 Y37.4365 
G01 X24.5635 Y39.0376 
G01 X24.6428 Y39.1564 
G01 X24.6975 Y39.2884 
G01 X24.7254 Y39.4286 
G01 X24.7254 Y40.7540 
G01 X24.7294 Y40.7742 
G01 X24.7294 Y42.2258 
G01 X24.7014 Y42.3668 
G01 X24.6464 Y42.4995 
G01 X24.5666 Y42.6190 
G01 X24.4650 Y42.7206 
G01 X24.3455 Y42.8004 
G01 X24.2128 Y42.8554 
G01 X24.0718 Y42.8834 
G01 X23.9282 Y42.8834 
G01 X23.7872 Y42.8554 
G01 X23.6545 Y42.8004 
G01 X23.5350 Y42.7206 
G01 X23.4334 Y42.6190 
G01 X23.3536 Y42.4995 
G01 X23.2986 Y42.3668 
G01 X23.2706 Y42.2258 
G01 X23.2706 Y40.7742 
G01 X23.2746 Y40.7540 
G01 X23.2746 Y39.8005 
G01 X22.1995 Y38.7254 
G01 X19.0714 Y38.7254 
G00 Z2.4000 
G00 X17.3943 Y50.9253 
G01 Z-0.1000 F50.00 
G01 X17.4174 Y50.9811 F100.00 
G01 X17.4174 Y52.7153 
G01 X17.5822 Y53.1132 
G01 X19.0822 Y54.6132 
G01 X19.3868 Y54.9178 
G01 X19.7847 Y55.0826 
G01 X21.5189 Y55.0826 
G01 X21.5747 Y55.1057 
G01 X21.6173 Y55.1483 
G01 X22.8943 Y56.4253 
G01 X22.9174 Y56.4811 
G01 X22.9174 Y57.1202 
G01 X22.9134 Y57.1299 
G01 X22.9134 Y58.8701 
G01 X22.9174 Y58.8798 
G01 X22.9174 Y60.5189 
G01 X22.8943 Y60.5746 
G01 X22.8740 Y60.5950 
G01 X21.6173 Y61.8517 
G01 X21.5950 Y61.8740 
G01 X21.5747 Y61.8943 
G01 X21.5189 Y61.9174 
G01 X18.2847 Y61.9174 
G01 X17.8868 Y62.0822 
G01 X17.5396 Y62.4294 
G01 X10.5746 Y69.3943 
G01 X10.5189 Y69.4174 
G01 X9.6831 Y69.4174 
G01 X9.6274 Y69.3943 
G01 X9.5848 Y69.3517 
G01 X9.0947 Y68.8616 
G01 X8.5877 Y68.6516 
G01 X8.5847 Y68.6503 
G01 X8.5320 Y68.6285 
G01 X8.4893 Y68.5859 
G01 X8.4662 Y68.5302 
G01 X8.4662 Y68.4698 
G01 X8.4755 Y68.4474 
G01 X8.4893 Y68.4141 
G01 X8.5320 Y68.3715 
G01 X9.0947 Y68.1384 
G01 X9.5848 Y67.6483 
G01 X9.6186 Y67.6145 
G01 X9.6274 Y67.6057 
G01 X9.6831 Y67.5826 
G01 X11.2153 Y67.5826 
G01 X11.6132 Y67.4178 
G01 X16.4178 Y62.6132 
G01 X16.5826 Y62.2153 
G01 X16.5826 Y51.2847 
G01 X16.4178 Y50.8868 
G01 X12.1057 Y46.5746 
G01 X12.0826 Y46.5189 
G01 X12.0826 Y43.7696 
G01 X12.0959 Y43.7374 
G01 X12.1057 Y43.7138 
G01 X12.1483 Y43.6712 
G01 X12.2040 Y43.6481 
G01 X12.2644 Y43.6481 
G01 X12.2965 Y43.6614 
G01 X12.3201 Y43.6712 
G01 X12.3627 Y43.7138 
G01 X12.3858 Y43.7696 
G01 X12.3950 Y43.7918 
G01 X12.4743 Y43.8711 
G01 X12.4974 Y43.9268 
G01 X12.4974 Y45.7953 
G01 X12.6622 Y46.1932 
G01 X17.3943 Y50.9253 
G00 Z2.4000 
G00 X21.9340 Y101.8854 
G01 Z-0.1000 F50.00 
G01 X21.6860 Y101.8854 F100.00 
G01 X21.4411 Y101.8466 
G01 X21.2053 Y101.7700 
G01 X20.9843 Y101.6574 
G01 X20.7837 Y101.5116 
G01 X17.7983 Y98.5263 
G01 X17.6526 Y98.3257 
G01 X17.5400 Y98.1047 
G01 X17.4634 Y97.8689 
G01 X17.4246 Y97.6240 
G01 X17.4246 Y95.1526 
G01 X13.0000 Y90.7280 
G01 X12.0263 Y91.7016 
G01 X11.8257 Y91.8474 
G01 X11.6047 Y91.9600 
G01 X11.3689 Y92.0366 
G01 X11.1240 Y92.0754 
G01 X7.8760 Y92.0754 
G01 X7.6311 Y92.0366 
G01 X7.3953 Y91.9600 
G01 X7.1743 Y91.8474 
G01 X6.9737 Y91.7016 
G01 X6.7984 Y91.5263 
G01 X6.6526 Y91.3257 
G01 X6.5400 Y91.1047 
G01 X6.4634 Y90.8689 
G01 X6.4246 Y90.6240 
G01 X6.4246 Y90.3760 
G01 X6.4634 Y90.1311 
G01 X6.5400 Y89.8953 
G01 X6.6526 Y89.6743 
G01 X6.7984 Y89.4737 
G01 X6.9737 Y89.2983 
G01 X7.1743 Y89.1526 
G01 X7.3953 Y89.0400 
G01 X7.6311 Y88.9634 
G01 X7.8760 Y88.9246 
G01 X10.3474 Y88.9246 
G01 X11.4246 Y87.8474 
G01 X11.4246 Y84.8760 
G01 X11.4634 Y84.6311 
G01 X11.5400 Y84.3953 
G01 X11.6526 Y84.1743 
G01 X11.7984 Y83.9737 
G01 X15.7984 Y79.9737 
G01 X15.9737 Y79.7983 
G01 X16.1743 Y79.6526 
G01 X16.3953 Y79.5400 
G01 X16.6311 Y79.4634 
G01 X16.8760 Y79.4246 
G01 X20.2340 Y79.4246 
G01 X20.4789 Y79.4634 
G01 X20.7147 Y79.5400 
G01 X20.9357 Y79.6526 
G01 X21.1363 Y79.7983 
G01 X21.3116 Y79.9737 
G01 X21.4574 Y80.1743 
G01 X21.5700 Y80.3953 
G01 X21.6466 Y80.6311 
G01 X21.6854 Y80.8760 
G01 X21.6854 Y81.1240 
G01 X21.6466 Y81.3689 
G01 X21.5700 Y81.6047 
G01 X21.4574 Y81.8257 
G01 X21.3116 Y82.0263 
G01 X21.1363 Y82.2016 
G01 X20.9357 Y82.3474 
G01 X20.7147 Y82.4600 
G01 X20.4789 Y82.5366 
G01 X20.2340 Y82.5754 
G01 X17.6526 Y82.5754 
G01 X14.5754 Y85.6526 
G01 X14.5754 Y87.8474 
G01 X20.0263 Y93.2983 
G01 X20.2016 Y93.4737 
G01 X20.3474 Y93.6743 
G01 X20.4600 Y93.8953 
G01 X20.5366 Y94.1311 
G01 X20.5754 Y94.3760 
G01 X20.5754 Y96.8474 
G01 X22.4626 Y98.7346 
G01 X40.0374 Y98.7346 
G01 X45.4246 Y93.3474 
G01 X45.4246 Y87.7707 
G01 X45.3400 Y87.6047 
G01 X45.2634 Y87.3689 
G01 X45.2246 Y87.1240 
G01 X45.2246 Y86.8760 
G01 X45.2634 Y86.6311 
G01 X45.3400 Y86.3953 
G01 X45.4526 Y86.1743 
G01 X45.5984 Y85.9737 
G01 X45.7737 Y85.7983 
G01 X45.9743 Y85.6526 
G01 X46.1953 Y85.5400 
G01 X46.4311 Y85.4634 
G01 X46.6760 Y85.4246 
G01 X46.9240 Y85.4246 
G01 X47.1689 Y85.4634 
G01 X47.4047 Y85.5400 
G01 X47.6257 Y85.6526 
G01 X47.8263 Y85.7983 
G01 X48.2016 Y86.1737 
G01 X48.3474 Y86.3743 
G01 X48.4600 Y86.5953 
G01 X48.5366 Y86.8311 
G01 X48.5754 Y87.0760 
G01 X48.5754 Y94.1240 
G01 X48.5366 Y94.3689 
G01 X48.4600 Y94.6047 
G01 X48.3474 Y94.8257 
G01 X48.2016 Y95.0263 
G01 X48.0263 Y95.2016 
G01 X41.7163 Y101.5116 
G01 X41.5157 Y101.6574 
G01 X41.2947 Y101.7700 
G01 X41.0589 Y101.8466 
G01 X40.8140 Y101.8854 
G01 X27.1140 Y101.8854 
G01 X21.9340 Y101.8854 
G00 Z2.4000 
G00 X38.2369 Y81.8374 
G01 Z-0.1000 F50.00 
G01 X37.5431 Y81.8374 F100.00 
G01 X37.0526 Y81.3469 
G01 X37.0526 Y80.6531 
G01 X37.5431 Y80.1626 
G01 X38.2369 Y80.1626 
G01 X38.3489 Y80.2746 
G01 X39.5714 Y80.2746 
G01 X39.7116 Y80.3025 
G01 X39.8436 Y80.3572 
G01 X39.9624 Y80.4365 
G01 X41.3005 Y81.7746 
G01 X43.1721 Y81.7746 
G01 X43.5216 Y81.4251 
G01 X44.4784 Y81.4251 
G01 X44.9079 Y81.8546 
G01 X48.1514 Y81.8546 
G01 X48.2916 Y81.8825 
G01 X48.4236 Y81.9372 
G01 X48.5424 Y82.0165 
G01 X48.8005 Y82.2746 
G01 X52.0714 Y82.2746 
G01 X52.2116 Y82.3025 
G01 X52.3436 Y82.3572 
G01 X52.3637 Y82.3706 
G01 X52.6160 Y82.3706 
G01 X52.7376 Y82.3948 
G01 X52.8521 Y82.4422 
G01 X52.9552 Y82.5111 
G01 X53.0429 Y82.5988 
G01 X53.1118 Y82.7019 
G01 X53.1592 Y82.8164 
G01 X53.1834 Y82.9380 
G01 X53.1834 Y83.0620 
G01 X53.1592 Y83.1836 
G01 X53.1118 Y83.2981 
G01 X53.0429 Y83.4012 
G01 X52.9552 Y83.4889 
G01 X52.8521 Y83.5578 
G01 X52.7376 Y83.6052 
G01 X52.6160 Y83.6294 
G01 X52.3637 Y83.6294 
G01 X52.3436 Y83.6428 
G01 X52.2116 Y83.6975 
G01 X52.0714 Y83.7254 
G01 X48.4286 Y83.7254 
G01 X48.2884 Y83.6975 
G01 X48.1564 Y83.6428 
G01 X48.0376 Y83.5635 
G01 X47.9365 Y83.4624 
G01 X47.7795 Y83.3054 
G01 X44.9079 Y83.3054 
G01 X44.4784 Y83.7349 
G01 X43.5216 Y83.7349 
G01 X43.0121 Y83.2254 
G01 X40.9286 Y83.2254 
G01 X40.7884 Y83.1975 
G01 X40.6564 Y83.1428 
G01 X40.5376 Y83.0635 
G01 X40.4365 Y82.9624 
G01 X39.1995 Y81.7254 
G01 X38.3489 Y81.7254 
G01 X38.2369 Y81.8374 
G00 Z2.4000 
G00 X14.6206 Y42.9181 
G01 Z-0.1000 F50.00 
G01 X14.6206 Y43.0819 F100.00 
G01 X14.5950 Y43.2437 
G01 X14.5444 Y43.3995 
G01 X14.4700 Y43.5454 
G01 X14.3737 Y43.6779 
G01 X14.3054 Y43.7462 
G01 X14.3054 Y45.2795 
G01 X18.9624 Y49.9365 
G01 X19.0635 Y50.0376 
G01 X19.1428 Y50.1564 
G01 X19.1975 Y50.2884 
G01 X19.2254 Y50.4286 
G01 X19.2254 Y52.1995 
G01 X20.3005 Y53.2746 
G01 X22.0714 Y53.2746 
G01 X22.2116 Y53.3025 
G01 X22.3436 Y53.3572 
G01 X22.4624 Y53.4365 
G01 X22.5635 Y53.5376 
G01 X24.5635 Y55.5376 
G01 X24.6428 Y55.6564 
G01 X24.6975 Y55.7884 
G01 X24.7254 Y55.9286 
G01 X24.7254 Y57.2540 
G01 X24.7294 Y57.2742 
G01 X24.7294 Y58.7258 
G01 X24.7254 Y58.7459 
G01 X24.7254 Y61.0714 
G01 X24.6975 Y61.2116 
G01 X24.6428 Y61.3436 
G01 X24.5635 Y61.4624 
G01 X24.4624 Y61.5635 
G01 X22.5635 Y63.4624 
G01 X22.4624 Y63.5635 
G01 X22.3436 Y63.6428 
G01 X22.2116 Y63.6975 
G01 X22.0714 Y63.7254 
G01 X18.8005 Y63.7254 
G01 X11.4624 Y71.0635 
G01 X11.3436 Y71.1428 
G01 X11.2116 Y71.1975 
G01 X11.0714 Y71.2254 
G01 X9.3985 Y71.2254 
G01 X9.3474 Y71.3257 
G01 X9.2016 Y71.5263 
G01 X9.0263 Y71.7016 
G01 X8.8257 Y71.8474 
G01 X8.6047 Y71.9600 
G01 X8.3689 Y72.0366 
G01 X8.1240 Y72.0754 
G01 X7.8760 Y72.0754 
G01 X7.6311 Y72.0366 
G01 X7.3953 Y71.9600 
G01 X7.1743 Y71.8474 
G01 X6.9737 Y71.7016 
G01 X6.7984 Y71.5263 
G01 X6.6526 Y71.3257 
G01 X6.5400 Y71.1047 
G01 X6.4634 Y70.8689 
G01 X6.4246 Y70.6240 
G01 X6.4246 Y70.3760 
G01 X6.4634 Y70.1311 
G01 X6.5400 Y69.8953 
G01 X6.6526 Y69.6743 
G01 X6.7984 Y69.4737 
G01 X6.9737 Y69.2983 
G01 X7.1743 Y69.1526 
G01 X7.3953 Y69.0400 
G01 X7.6311 Y68.9634 
G01 X7.8760 Y68.9246 
G01 X8.1240 Y68.9246 
G01 X8.3689 Y68.9634 
G01 X8.6047 Y69.0400 
G01 X8.8257 Y69.1526 
G01 X9.0263 Y69.2983 
G01 X9.2016 Y69.4737 
G01 X9.3474 Y69.6743 
G01 X9.3985 Y69.7746 
G01 X10.6995 Y69.7746 
G01 X17.9365 Y62.5376 
G01 X18.0376 Y62.4365 
G01 X18.1564 Y62.3572 
G01 X18.2884 Y62.3025 
G01 X18.4286 Y62.2746 
G01 X21.6995 Y62.2746 
G01 X23.2746 Y60.6995 
G01 X23.2746 Y58.7459 
G01 X23.2706 Y58.7258 
G01 X23.2706 Y57.2742 
G01 X23.2746 Y57.2540 
G01 X23.2746 Y56.3005 
G01 X21.6995 Y54.7254 
G01 X19.9286 Y54.7254 
G01 X19.7884 Y54.6975 
G01 X19.6564 Y54.6428 
G01 X19.5376 Y54.5635 
G01 X19.4365 Y54.4624 
G01 X17.9365 Y52.9624 
G01 X17.8572 Y52.8436 
G01 X17.8025 Y52.7116 
G01 X17.7746 Y52.5714 
G01 X17.7746 Y50.8005 
G01 X13.0165 Y46.0424 
G01 X12.9372 Y45.9236 
G01 X12.8825 Y45.7916 
G01 X12.8546 Y45.6514 
G01 X12.8546 Y43.7462 
G01 X12.7863 Y43.6779 
G01 X12.6900 Y43.5454 
G01 X12.6156 Y43.3995 
G01 X12.5650 Y43.2437 
G01 X12.5394 Y43.0819 
G01 X12.5394 Y42.9181 
G01 X12.5650 Y42.7563 
G01 X12.6156 Y42.6005 
G01 X12.6900 Y42.4546 
G01 X12.7863 Y42.3221 
G01 X12.9021 Y42.2063 
G01 X13.0346 Y42.1100 
G01 X13.1805 Y42.0356 
G01 X13.3363 Y41.9850 
G01 X13.4981 Y41.9594 
G01 X13.6619 Y41.9594 
G01 X13.8237 Y41.9850 
G01 X13.9794 Y42.0356 
G01 X14.1254 Y42.1100 
G01 X14.2579 Y42.2063 
G01 X14.3737 Y42.3221 
G01 X14.4700 Y42.4546 
G01 X14.5444 Y42.6005 
G01 X14.5950 Y42.7563 
G01 X14.6206 Y42.9181 
G00 Z2.4000 
G00 X4.4606 Y42.9181 
G01 Z-0.1000 F50.00 
G01 X4.4606 Y43.0819 F100.00 
G01 X4.4350 Y43.2437 
G01 X4.3844 Y43.3995 
G01 X4.3100 Y43.5454 
G01 X4.2137 Y43.6779 
G01 X4.0979 Y43.7937 
G01 X4.0241 Y43.8473 
G01 X3.9835 Y43.9082 
G01 X3.3443 Y44.5473 
G01 X3.2264 Y68.8007 
G01 X5.9568 Y73.3513 
G01 X6.7783 Y73.5150 
G01 X6.8083 Y73.4737 
G01 X6.9837 Y73.2983 
G01 X7.1843 Y73.1526 
G01 X7.4053 Y73.0400 
G01 X7.6411 Y72.9634 
G01 X7.8860 Y72.9246 
G01 X8.1340 Y72.9246 
G01 X8.3789 Y72.9634 
G01 X8.6147 Y73.0400 
G01 X8.8357 Y73.1526 
G01 X9.0363 Y73.2983 
G01 X9.2116 Y73.4737 
G01 X9.3574 Y73.6743 
G01 X9.4085 Y73.7746 
G01 X10.6995 Y73.7746 
G01 X17.5376 Y66.9365 
G01 X17.6564 Y66.8572 
G01 X17.7884 Y66.8025 
G01 X17.9286 Y66.7746 
G01 X25.5714 Y66.7746 
G01 X25.7116 Y66.8025 
G01 X25.8436 Y66.8572 
G01 X25.9624 Y66.9365 
G01 X26.0635 Y67.0376 
G01 X26.1428 Y67.1564 
G01 X26.1975 Y67.2884 
G01 X26.2254 Y67.4286 
G01 X26.2254 Y69.6995 
G01 X33.3005 Y76.7746 
G01 X45.5714 Y76.7746 
G01 X45.7116 Y76.8025 
G01 X45.8436 Y76.8572 
G01 X45.9624 Y76.9365 
G01 X48.8005 Y79.7746 
G01 X55.1995 Y79.7746 
G01 X57.4365 Y77.5376 
G01 X57.5376 Y77.4365 
G01 X57.6564 Y77.3572 
G01 X57.7884 Y77.3025 
G01 X57.9286 Y77.2746 
G01 X60.6714 Y77.2746 
G01 X60.8116 Y77.3025 
G01 X60.9436 Y77.3572 
G01 X60.9637 Y77.3706 
G01 X61.2160 Y77.3706 
G01 X61.3376 Y77.3948 
G01 X61.4521 Y77.4422 
G01 X61.5552 Y77.5111 
G01 X61.6429 Y77.5988 
G01 X61.7118 Y77.7019 
G01 X61.7592 Y77.8164 
G01 X61.7834 Y77.9380 
G01 X61.7834 Y78.0620 
G01 X61.7592 Y78.1836 
G01 X61.7118 Y78.2981 
G01 X61.6429 Y78.4012 
G01 X61.5552 Y78.4889 
G01 X61.4521 Y78.5578 
G01 X61.3376 Y78.6052 
G01 X61.2160 Y78.6294 
G01 X60.9637 Y78.6294 
G01 X60.9436 Y78.6428 
G01 X60.8116 Y78.6975 
G01 X60.6714 Y78.7254 
G01 X58.3005 Y78.7254 
G01 X55.9624 Y81.0635 
G01 X55.8436 Y81.1428 
G01 X55.7116 Y81.1975 
G01 X55.5714 Y81.2254 
G01 X48.4286 Y81.2254 
G01 X48.2884 Y81.1975 
G01 X48.1564 Y81.1428 
G01 X48.0376 Y81.0635 
G01 X45.1995 Y78.2254 
G01 X32.9286 Y78.2254 
G01 X32.7884 Y78.1975 
G01 X32.6564 Y78.1428 
G01 X32.5376 Y78.0635 
G01 X32.4365 Y77.9624 
G01 X24.9365 Y70.4624 
G01 X24.8572 Y70.3436 
G01 X24.8025 Y70.2116 
G01 X24.7746 Y70.0714 
G01 X24.7746 Y68.2254 
G01 X18.3005 Y68.2254 
G01 X11.5635 Y74.9624 
G01 X11.4624 Y75.0635 
G01 X11.3436 Y75.1428 
G01 X11.2116 Y75.1975 
G01 X11.0714 Y75.2254 
G01 X9.4085 Y75.2254 
G01 X9.3574 Y75.3257 
G01 X9.2116 Y75.5263 
G01 X9.0363 Y75.7016 
G01 X8.8357 Y75.8474 
G01 X8.6147 Y75.9600 
G01 X8.3789 Y76.0366 
G01 X8.1340 Y76.0754 
G01 X7.8860 Y76.0754 
G01 X7.6411 Y76.0366 
G01 X7.4053 Y75.9600 
G01 X7.1843 Y75.8474 
G01 X6.9837 Y75.7016 
G01 X6.8083 Y75.5263 
G01 X6.6626 Y75.3257 
G01 X6.5500 Y75.1047 
G01 X6.4958 Y74.9380 
G01 X5.4110 Y74.7219 
G01 X5.3934 Y74.7211 
G01 X5.3411 Y74.7080 
G01 X5.2882 Y74.6975 
G01 X5.2719 Y74.6907 
G01 X5.2548 Y74.6864 
G01 X5.2061 Y74.6634 
G01 X5.1562 Y74.6427 
G01 X5.1415 Y74.6329 
G01 X5.1256 Y74.6254 
G01 X5.0822 Y74.5933 
G01 X5.0374 Y74.5633 
G01 X5.0249 Y74.5508 
G01 X5.0107 Y74.5403 
G01 X4.9745 Y74.5004 
G01 X4.9364 Y74.4623 
G01 X4.9266 Y74.4476 
G01 X4.9147 Y74.4345 
G01 X4.8870 Y74.3882 
G01 X4.8571 Y74.3434 
G01 X4.8503 Y74.3271 
G01 X1.8861 Y69.3868 
G01 X1.8555 Y69.3405 
G01 X1.8495 Y69.3257 
G01 X1.8412 Y69.3120 
G01 X1.8225 Y69.2596 
G01 X1.8015 Y69.2082 
G01 X1.7984 Y69.1925 
G01 X1.7930 Y69.1774 
G01 X1.7848 Y69.1224 
G01 X1.7743 Y69.0679 
G01 X1.7743 Y69.0519 
G01 X1.7720 Y69.0361 
G01 X1.7747 Y68.9806 
G01 X1.8950 Y44.2437 
G01 X1.8950 Y44.1740 
G01 X1.8953 Y44.1704 
G01 X1.9093 Y44.1020 
G01 X1.9228 Y44.0338 
G01 X1.9239 Y44.0304 
G01 X1.9509 Y43.9660 
G01 X1.9775 Y43.9018 
G01 X1.9792 Y43.8987 
G01 X2.0182 Y43.8410 
G01 X2.0569 Y43.7830 
G01 X2.0592 Y43.7803 
G01 X2.1086 Y43.7313 
G01 X2.4519 Y43.3880 
G01 X2.4050 Y43.2437 
G01 X2.3794 Y43.0819 
G01 X2.3794 Y42.9181 
G01 X2.4050 Y42.7563 
G01 X2.4556 Y42.6005 
G01 X2.5300 Y42.4546 
G01 X2.6263 Y42.3221 
G01 X2.6946 Y42.2538 
G01 X2.6946 Y37.7462 
G01 X2.6263 Y37.6779 
G01 X2.5300 Y37.5454 
G01 X2.4556 Y37.3995 
G01 X2.4050 Y37.2437 
G01 X2.3794 Y37.0819 
G01 X2.3794 Y36.9181 
G01 X2.4050 Y36.7563 
G01 X2.4556 Y36.6005 
G01 X2.5300 Y36.4546 
G01 X2.6263 Y36.3221 
G01 X2.6946 Y36.2538 
G01 X2.6946 Y31.7462 
G01 X2.6263 Y31.6779 
G01 X2.5300 Y31.5454 
G01 X2.4556 Y31.3995 
G01 X2.4050 Y31.2437 
G01 X2.3794 Y31.0819 
G01 X2.3794 Y30.9181 
G01 X2.4050 Y30.7563 
G01 X2.4556 Y30.6005 
G01 X2.5300 Y30.4546 
G01 X2.6263 Y30.3221 
G01 X2.6946 Y30.2538 
G01 X2.6946 Y25.7462 
G01 X2.6263 Y25.6779 
G01 X2.5300 Y25.5454 
G01 X2.4556 Y25.3995 
G01 X2.4050 Y25.2437 
G01 X2.3794 Y25.0819 
G01 X2.3794 Y24.9181 
G01 X2.4050 Y24.7563 
G01 X2.4556 Y24.6005 
G01 X2.5300 Y24.4546 
G01 X2.6263 Y24.3221 
G01 X2.6946 Y24.2538 
G01 X2.6946 Y19.7462 
G01 X2.6263 Y19.6779 
G01 X2.5300 Y19.5454 
G01 X2.4556 Y19.3995 
G01 X2.4050 Y19.2437 
G01 X2.3794 Y19.0819 
G01 X2.3794 Y18.9181 
G01 X2.4050 Y18.7563 
G01 X2.4556 Y18.6005 
G01 X2.5300 Y18.4546 
G01 X2.6263 Y18.3221 
G01 X2.7421 Y18.2063 
G01 X2.8746 Y18.1100 
G01 X3.0205 Y18.0356 
G01 X3.1763 Y17.9850 
G01 X3.3381 Y17.9594 
G01 X3.5019 Y17.9594 
G01 X3.6637 Y17.9850 
G01 X3.8195 Y18.0356 
G01 X3.9654 Y18.1100 
G01 X4.0979 Y18.2063 
G01 X4.2137 Y18.3221 
G01 X4.3100 Y18.4546 
G01 X4.3844 Y18.6005 
G01 X4.4350 Y18.7563 
G01 X4.4606 Y18.9181 
G01 X4.4606 Y19.0819 
G01 X4.4350 Y19.2437 
G01 X4.3844 Y19.3995 
G01 X4.3100 Y19.5454 
G01 X4.2137 Y19.6779 
G01 X4.1454 Y19.7462 
G01 X4.1454 Y24.2538 
G01 X4.2137 Y24.3221 
G01 X4.3100 Y24.4546 
G01 X4.3844 Y24.6005 
G01 X4.4350 Y24.7563 
G01 X4.4606 Y24.9181 
G01 X4.4606 Y25.0819 
G01 X4.4350 Y25.2437 
G01 X4.3844 Y25.3995 
G01 X4.3100 Y25.5454 
G01 X4.2137 Y25.6779 
G01 X4.1454 Y25.7462 
G01 X4.1454 Y30.2538 
G01 X4.2137 Y30.3221 
G01 X4.3100 Y30.4546 
G01 X4.3844 Y30.6005 
G01 X4.4350 Y30.7563 
G01 X4.4606 Y30.9181 
G01 X4.4606 Y31.0819 
G01 X4.4350 Y31.2437 
G01 X4.3844 Y31.3995 
G01 X4.3100 Y31.5454 
G01 X4.2137 Y31.6779 
G01 X4.1454 Y31.7462 
G01 X4.1454 Y36.2538 
G01 X4.2137 Y36.3221 
G01 X4.3100 Y36.4546 
G01 X4.3844 Y36.6005 
G01 X4.4350 Y36.7563 
G01 X4.4606 Y36.9181 
G01 X4.4606 Y37.0819 
G01 X4.4350 Y37.2437 
G01 X4.3844 Y37.3995 
G01 X4.3100 Y37.5454 
G01 X4.2137 Y37.6779 
G01 X4.1454 Y37.7462 
G01 X4.1454 Y42.2538 
G01 X4.2137 Y42.3221 
G01 X4.3100 Y42.4546 
G01 X4.3844 Y42.6005 
G01 X4.4350 Y42.7563 
G01 X4.4606 Y42.9181 
G00 Z2.4000 
G00 X9.3374 Y59.3257 
G01 Z-0.1000 F50.00 
G01 X9.1916 Y59.5263 F100.00 
G01 X9.0163 Y59.7016 
G01 X8.8157 Y59.8474 
G01 X8.5947 Y59.9600 
G01 X8.3589 Y60.0366 
G01 X8.1140 Y60.0754 
G01 X7.8660 Y60.0754 
G01 X7.6211 Y60.0366 
G01 X7.3853 Y59.9600 
G01 X7.1643 Y59.8474 
G01 X6.9637 Y59.7016 
G01 X6.7884 Y59.5263 
G01 X6.6426 Y59.3257 
G01 X6.5300 Y59.1047 
G01 X6.4534 Y58.8689 
G01 X6.4146 Y58.6240 
G01 X6.4146 Y58.3760 
G01 X6.4534 Y58.1311 
G01 X6.5300 Y57.8953 
G01 X6.6426 Y57.6743 
G01 X6.7884 Y57.4737 
G01 X6.9637 Y57.2983 
G01 X7.1643 Y57.1526 
G01 X7.3853 Y57.0400 
G01 X7.6211 Y56.9634 
G01 X7.8660 Y56.9246 
G01 X8.1140 Y56.9246 
G01 X8.3589 Y56.9634 
G01 X8.5947 Y57.0400 
G01 X8.8157 Y57.1526 
G01 X9.0163 Y57.2983 
G01 X9.1916 Y57.4737 
G01 X9.3374 Y57.6743 
G01 X9.3885 Y57.7746 
G01 X9.6995 Y57.7746 
G01 X10.2746 Y57.1995 
G01 X10.2746 Y52.4143 
G01 X6.7877 Y48.9274 
G01 X6.7084 Y48.8086 
G01 X6.6537 Y48.6766 
G01 X6.6258 Y48.5364 
G01 X6.6258 Y43.9286 
G01 X6.6537 Y43.7884 
G01 X6.7084 Y43.6564 
G01 X6.7145 Y43.6471 
G01 X6.7084 Y43.6379 
G01 X6.6537 Y43.5059 
G01 X6.6258 Y43.3657 
G01 X6.6258 Y29.0774 
G01 X6.6537 Y28.9372 
G01 X6.7084 Y28.8052 
G01 X6.7877 Y28.6864 
G01 X6.8888 Y28.5853 
G01 X11.0376 Y24.4365 
G01 X11.1564 Y24.3572 
G01 X11.2884 Y24.3025 
G01 X11.4286 Y24.2746 
G01 X12.8338 Y24.2746 
G01 X12.9021 Y24.2063 
G01 X13.0346 Y24.1100 
G01 X13.1805 Y24.0356 
G01 X13.3363 Y23.9850 
G01 X13.4981 Y23.9594 
G01 X13.6619 Y23.9594 
G01 X13.8237 Y23.9850 
G01 X13.9794 Y24.0356 
G01 X14.1254 Y24.1100 
G01 X14.2579 Y24.2063 
G01 X14.3262 Y24.2746 
G01 X16.0714 Y24.2746 
G01 X16.2116 Y24.3025 
G01 X16.3436 Y24.3572 
G01 X16.4624 Y24.4365 
G01 X17.4624 Y25.4365 
G01 X17.5635 Y25.5376 
G01 X17.6428 Y25.6564 
G01 X17.6975 Y25.7884 
G01 X17.7254 Y25.9286 
G01 X17.7254 Y26.6995 
G01 X18.8005 Y27.7746 
G01 X21.5714 Y27.7746 
G01 X21.7116 Y27.8025 
G01 X21.8436 Y27.8572 
G01 X21.9624 Y27.9365 
G01 X22.0635 Y28.0376 
G01 X24.5635 Y30.5376 
G01 X24.6428 Y30.6564 
G01 X24.6975 Y30.7884 
G01 X24.7254 Y30.9286 
G01 X24.7254 Y32.2540 
G01 X24.7294 Y32.2742 
G01 X24.7294 Y33.7258 
G01 X24.7014 Y33.8668 
G01 X24.6464 Y33.9995 
G01 X24.5666 Y34.1190 
G01 X24.4650 Y34.2206 
G01 X24.3455 Y34.3004 
G01 X24.2128 Y34.3554 
G01 X24.0718 Y34.3834 
G01 X23.9282 Y34.3834 
G01 X23.7872 Y34.3554 
G01 X23.6545 Y34.3004 
G01 X23.5350 Y34.2206 
G01 X23.4334 Y34.1190 
G01 X23.3536 Y33.9995 
G01 X23.2986 Y33.8668 
G01 X23.2706 Y33.7258 
G01 X23.2706 Y32.2742 
G01 X23.2746 Y32.2540 
G01 X23.2746 Y31.3005 
G01 X21.1995 Y29.2254 
G01 X18.4286 Y29.2254 
G01 X18.2884 Y29.1975 
G01 X18.1564 Y29.1428 
G01 X18.0376 Y29.0635 
G01 X17.9365 Y28.9624 
G01 X16.4365 Y27.4624 
G01 X16.3572 Y27.3436 
G01 X16.3025 Y27.2116 
G01 X16.2746 Y27.0714 
G01 X16.2746 Y26.3005 
G01 X15.6995 Y25.7254 
G01 X14.3262 Y25.7254 
G01 X14.2579 Y25.7937 
G01 X14.1254 Y25.8900 
G01 X13.9794 Y25.9644 
G01 X13.8237 Y26.0150 
G01 X13.6619 Y26.0406 
G01 X13.4981 Y26.0406 
G01 X13.3363 Y26.0150 
G01 X13.1805 Y25.9644 
G01 X13.0346 Y25.8900 
G01 X12.9021 Y25.7937 
G01 X12.8338 Y25.7254 
G01 X11.8005 Y25.7254 
G01 X8.0766 Y29.4493 
G01 X8.0766 Y43.3657 
G01 X8.0487 Y43.5059 
G01 X7.9940 Y43.6379 
G01 X7.9879 Y43.6471 
G01 X7.9940 Y43.6564 
G01 X8.0487 Y43.7884 
G01 X8.0766 Y43.9286 
G01 X8.0766 Y48.1645 
G01 X11.5635 Y51.6514 
G01 X11.6428 Y51.7702 
G01 X11.6975 Y51.9022 
G01 X11.7254 Y52.0423 
G01 X11.7254 Y57.5714 
G01 X11.6975 Y57.7116 
G01 X11.6428 Y57.8436 
G01 X11.5635 Y57.9624 
G01 X11.4624 Y58.0635 
G01 X10.4624 Y59.0635 
G01 X10.3436 Y59.1428 
G01 X10.2116 Y59.1975 
G01 X10.0714 Y59.2254 
G01 X9.3885 Y59.2254 
G01 X9.3374 Y59.3257 
G00 Z2.4000 
G00 X9.5654 Y78.3760 
G01 Z-0.1000 F50.00 
G01 X9.5654 Y78.6240 F100.00 
G01 X9.5266 Y78.8689 
G01 X9.4500 Y79.1047 
G01 X9.3374 Y79.3257 
G01 X9.1916 Y79.5263 
G01 X9.0163 Y79.7016 
G01 X8.8157 Y79.8474 
G01 X8.5947 Y79.9600 
G01 X8.3589 Y80.0366 
G01 X8.1140 Y80.0754 
G01 X7.8660 Y80.0754 
G01 X7.6211 Y80.0366 
G01 X7.3853 Y79.9600 
G01 X7.1643 Y79.8474 
G01 X6.9637 Y79.7016 
G01 X6.7884 Y79.5263 
G01 X6.6426 Y79.3257 
G01 X6.5300 Y79.1047 
G01 X6.4534 Y78.8689 
G01 X6.4146 Y78.6240 
G01 X6.4146 Y78.3760 
G01 X6.4534 Y78.1311 
G01 X6.5300 Y77.8953 
G01 X6.6426 Y77.6743 
G01 X6.7884 Y77.4737 
G01 X6.9637 Y77.2983 
G01 X7.1643 Y77.1526 
G01 X7.3853 Y77.0400 
G01 X7.6211 Y76.9634 
G01 X7.8660 Y76.9246 
G01 X8.1140 Y76.9246 
G01 X8.3589 Y76.9634 
G01 X8.5947 Y77.0400 
G01 X8.8157 Y77.1526 
G01 X9.0163 Y77.2983 
G01 X9.1916 Y77.4737 
G01 X9.3374 Y77.6743 
G01 X9.4500 Y77.8953 
G01 X9.5266 Y78.1311 
G01 X9.5654 Y78.3760 
G00 Z2.4000 
G00 X9.5754 Y86.3760 
G01 Z-0.1000 F50.00 
G01 X9.5754 Y86.6240 F100.00 
G01 X9.5366 Y86.8689 
G01 X9.4600 Y87.1047 
G01 X9.3474 Y87.3257 
G01 X9.2016 Y87.5263 
G01 X9.0263 Y87.7016 
G01 X8.8257 Y87.8474 
G01 X8.6047 Y87.9600 
G01 X8.3689 Y88.0366 
G01 X8.1240 Y88.0754 
G01 X7.8760 Y88.0754 
G01 X7.6311 Y88.0366 
G01 X7.3953 Y87.9600 
G01 X7.1743 Y87.8474 
G01 X6.9737 Y87.7016 
G01 X6.7984 Y87.5263 
G01 X6.6526 Y87.3257 
G01 X6.5400 Y87.1047 
G01 X6.4634 Y86.8689 
G01 X6.4246 Y86.6240 
G01 X6.4246 Y86.3760 
G01 X6.4634 Y86.1311 
G01 X6.5400 Y85.8953 
G01 X6.6526 Y85.6743 
G01 X6.7984 Y85.4737 
G01 X6.9737 Y85.2983 
G01 X7.1743 Y85.1526 
G01 X7.3953 Y85.0400 
G01 X7.6311 Y84.9634 
G01 X7.8760 Y84.9246 
G01 X8.1240 Y84.9246 
G01 X8.3689 Y84.9634 
G01 X8.6047 Y85.0400 
G01 X8.8257 Y85.1526 
G01 X9.0263 Y85.2983 
G01 X9.2016 Y85.4737 
G01 X9.3474 Y85.6743 
G01 X9.4600 Y85.8953 
G01 X9.5366 Y86.1311 
G01 X9.5754 Y86.3760 
G00 Z2.4000 
G00 X23.2706 Y51.2258 
G01 Z-0.1000 F50.00 
G01 X23.2706 Y49.7742 F100.00 
G01 X23.2746 Y49.7540 
G01 X23.2746 Y48.8005 
G01 X22.6995 Y48.2254 
G01 X21.4286 Y48.2254 
G01 X21.2884 Y48.1975 
G01 X21.1564 Y48.1428 
G01 X21.0376 Y48.0635 
G01 X13.5800 Y40.6059 
G01 X11.7254 Y42.4605 
G01 X11.7254 Y46.6995 
G01 X15.9624 Y50.9365 
G01 X16.0635 Y51.0376 
G01 X16.1428 Y51.1564 
G01 X16.1975 Y51.2884 
G01 X16.2254 Y51.4286 
G01 X16.2254 Y62.0714 
G01 X16.1975 Y62.2116 
G01 X16.1428 Y62.3436 
G01 X16.0635 Y62.4624 
G01 X15.9624 Y62.5635 
G01 X11.4624 Y67.0635 
G01 X11.3436 Y67.1428 
G01 X11.2116 Y67.1975 
G01 X11.0714 Y67.2254 
G01 X9.3985 Y67.2254 
G01 X9.3474 Y67.3257 
G01 X9.2016 Y67.5263 
G01 X9.0263 Y67.7016 
G01 X8.8257 Y67.8474 
G01 X8.6047 Y67.9600 
G01 X8.3689 Y68.0366 
G01 X8.1240 Y68.0754 
G01 X7.8760 Y68.0754 
G01 X7.6311 Y68.0366 
G01 X7.3953 Y67.9600 
G01 X7.1743 Y67.8474 
G01 X6.9737 Y67.7016 
G01 X6.7984 Y67.5263 
G01 X6.6526 Y67.3257 
G01 X6.5400 Y67.1047 
G01 X6.4634 Y66.8689 
G01 X6.4246 Y66.6240 
G01 X6.4246 Y66.3760 
G01 X6.4634 Y66.1311 
G01 X6.5400 Y65.8953 
G01 X6.6526 Y65.6743 
G01 X6.7984 Y65.4737 
G01 X6.9737 Y65.2983 
G01 X7.1743 Y65.1526 
G01 X7.3953 Y65.0400 
G01 X7.6311 Y64.9634 
G01 X7.8760 Y64.9246 
G01 X8.1240 Y64.9246 
G01 X8.3689 Y64.9634 
G01 X8.6047 Y65.0400 
G01 X8.8257 Y65.1526 
G01 X9.0263 Y65.2983 
G01 X9.2016 Y65.4737 
G01 X9.3474 Y65.6743 
G01 X9.3985 Y65.7746 
G01 X10.6995 Y65.7746 
G01 X14.7746 Y61.6995 
G01 X14.7746 Y51.8005 
G01 X10.4365 Y47.4624 
G01 X10.3572 Y47.3436 
G01 X10.3025 Y47.2116 
G01 X10.2746 Y47.0714 
G01 X10.2746 Y42.0886 
G01 X10.3025 Y41.9484 
G01 X10.3572 Y41.8164 
G01 X10.4365 Y41.6976 
G01 X10.5376 Y41.5965 
G01 X12.8546 Y39.2795 
G01 X12.8546 Y37.7462 
G01 X12.7863 Y37.6779 
G01 X12.6900 Y37.5454 
G01 X12.6156 Y37.3995 
G01 X12.5650 Y37.2437 
G01 X12.5394 Y37.0819 
G01 X12.5394 Y36.9181 
G01 X12.5650 Y36.7563 
G01 X12.6156 Y36.6005 
G01 X12.6900 Y36.4546 
G01 X12.7863 Y36.3221 
G01 X12.9021 Y36.2063 
G01 X13.0346 Y36.1100 
G01 X13.1805 Y36.0356 
G01 X13.3363 Y35.9850 
G01 X13.4981 Y35.9594 
G01 X13.6619 Y35.9594 
G01 X13.8237 Y35.9850 
G01 X13.9794 Y36.0356 
G01 X14.1254 Y36.1100 
G01 X14.2579 Y36.2063 
G01 X14.3737 Y36.3221 
G01 X14.4700 Y36.4546 
G01 X14.5444 Y36.6005 
G01 X14.5950 Y36.7563 
G01 X14.6206 Y36.9181 
G01 X14.6206 Y37.0819 
G01 X14.5950 Y37.2437 
G01 X14.5444 Y37.3995 
G01 X14.4700 Y37.5454 
G01 X14.3737 Y37.6779 
G01 X14.3054 Y37.7462 
G01 X14.3054 Y39.2795 
G01 X21.8005 Y46.7746 
G01 X23.0714 Y46.7746 
G01 X23.2116 Y46.8025 
G01 X23.3436 Y46.8572 
G01 X23.4624 Y46.9365 
G01 X23.5635 Y47.0376 
G01 X24.5635 Y48.0376 
G01 X24.6428 Y48.1564 
G01 X24.6975 Y48.2884 
G01 X24.7254 Y48.4286 
G01 X24.7254 Y49.7540 
G01 X24.7294 Y49.7742 
G01 X24.7294 Y51.2258 
G01 X24.7014 Y51.3668 
G01 X24.6464 Y51.4995 
G01 X24.5666 Y51.6190 
G01 X24.4650 Y51.7206 
G01 X24.3455 Y51.8004 
G01 X24.2128 Y51.8554 
G01 X24.0718 Y51.8834 
G01 X23.9282 Y51.8834 
G01 X23.7872 Y51.8554 
G01 X23.6545 Y51.8004 
G01 X23.5350 Y51.7206 
G01 X23.4334 Y51.6190 
G01 X23.3536 Y51.4995 
G01 X23.2986 Y51.3668 
G01 X23.2706 Y51.2258 
G00 Z2.4000 
G00 X22.7706 Y25.7258 
G01 Z-0.1000 F50.00 
G01 X22.7706 Y25.2251 F100.00 
G01 X22.7385 Y25.1476 
G01 X22.7106 Y25.0074 
G01 X22.7106 Y17.7220 
G01 X20.9880 Y15.9994 
G01 X15.5265 Y15.9994 
G01 X14.3054 Y17.2205 
G01 X14.3054 Y18.2538 
G01 X14.3737 Y18.3221 
G01 X14.4700 Y18.4546 
G01 X14.5444 Y18.6005 
G01 X14.5950 Y18.7563 
G01 X14.6206 Y18.9181 
G01 X14.6206 Y19.0819 
G01 X14.5950 Y19.2437 
G01 X14.5444 Y19.3995 
G01 X14.4700 Y19.5454 
G01 X14.3737 Y19.6779 
G01 X14.2579 Y19.7937 
G01 X14.1254 Y19.8900 
G01 X13.9794 Y19.9644 
G01 X13.8237 Y20.0150 
G01 X13.6619 Y20.0406 
G01 X13.4981 Y20.0406 
G01 X13.3363 Y20.0150 
G01 X13.1805 Y19.9644 
G01 X13.0346 Y19.8900 
G01 X12.9021 Y19.7937 
G01 X12.8338 Y19.7254 
G01 X8.8005 Y19.7254 
G01 X6.2686 Y22.2573 
G01 X6.2686 Y43.9509 
G01 X6.2407 Y44.0911 
G01 X6.1860 Y44.2231 
G01 X6.1067 Y44.3419 
G01 X6.0056 Y44.4429 
G01 X5.2254 Y45.2231 
G01 X5.2254 Y51.7455 
G01 X6.4246 Y53.2446 
G01 X6.4246 Y52.9850 
G01 X6.4361 Y52.9573 
G01 X6.4573 Y52.9361 
G01 X6.4850 Y52.9246 
G01 X9.5150 Y52.9246 
G01 X9.5427 Y52.9361 
G01 X9.5639 Y52.9573 
G01 X9.5754 Y52.9850 
G01 X9.5754 Y56.0150 
G01 X9.5639 Y56.0427 
G01 X9.5427 Y56.0639 
G01 X9.5150 Y56.0754 
G01 X6.4850 Y56.0754 
G01 X6.4573 Y56.0639 
G01 X6.4361 Y56.0427 
G01 X6.4246 Y56.0150 
G01 X6.4246 Y55.2246 
G01 X6.3890 Y55.2175 
G01 X6.3489 Y55.2131 
G01 X6.3191 Y55.2036 
G01 X6.2884 Y55.1975 
G01 X6.2512 Y55.1821 
G01 X6.2127 Y55.1699 
G01 X6.1853 Y55.1548 
G01 X6.1564 Y55.1428 
G01 X6.1229 Y55.1204 
G01 X6.0875 Y55.1010 
G01 X6.0636 Y55.0808 
G01 X6.0376 Y55.0635 
G01 X6.0091 Y55.0349 
G01 X5.9782 Y55.0089 
G01 X5.9587 Y54.9845 
G01 X5.9365 Y54.9624 
G01 X5.9141 Y54.9289 
G01 X3.9587 Y52.4845 
G01 X3.9365 Y52.4624 
G01 X3.9141 Y52.4289 
G01 X3.8889 Y52.3974 
G01 X3.8745 Y52.3696 
G01 X3.8572 Y52.3436 
G01 X3.8417 Y52.3063 
G01 X3.8231 Y52.2705 
G01 X3.8144 Y52.2405 
G01 X3.8025 Y52.2116 
G01 X3.7946 Y52.1720 
G01 X3.7834 Y52.1333 
G01 X3.7807 Y52.1021 
G01 X3.7746 Y52.0714 
G01 X3.7746 Y52.0311 
G01 X3.7711 Y51.9909 
G01 X3.7746 Y51.9598 
G01 X3.7746 Y44.8512 
G01 X3.8025 Y44.7111 
G01 X3.8572 Y44.5791 
G01 X3.9365 Y44.4602 
G01 X4.0376 Y44.3592 
G01 X4.8178 Y43.5790 
G01 X4.8178 Y21.8854 
G01 X4.8457 Y21.7452 
G01 X4.9004 Y21.6132 
G01 X4.9797 Y21.4944 
G01 X5.0808 Y21.3933 
G01 X7.9365 Y18.5376 
G01 X8.0376 Y18.4365 
G01 X8.1564 Y18.3572 
G01 X8.2884 Y18.3025 
G01 X8.4285 Y18.2746 
G01 X12.8338 Y18.2746 
G01 X12.8546 Y18.2538 
G01 X12.8546 Y16.8485 
G01 X12.8825 Y16.7084 
G01 X12.9372 Y16.5764 
G01 X13.0165 Y16.4576 
G01 X14.6625 Y14.8116 
G01 X14.7636 Y14.7105 
G01 X14.8824 Y14.6312 
G01 X15.0144 Y14.5765 
G01 X15.1546 Y14.5486 
G01 X21.3600 Y14.5486 
G01 X21.5001 Y14.5765 
G01 X21.6321 Y14.6312 
G01 X21.7509 Y14.7105 
G01 X21.8520 Y14.8116 
G01 X23.8984 Y16.8580 
G01 X23.9995 Y16.9591 
G01 X24.0788 Y17.0779 
G01 X24.1335 Y17.2099 
G01 X24.1614 Y17.3500 
G01 X24.1614 Y24.0367 
G01 X24.2014 Y24.1332 
G01 X24.2294 Y24.2742 
G01 X24.2294 Y25.7258 
G01 X24.2014 Y25.8668 
G01 X24.1464 Y25.9995 
G01 X24.0666 Y26.1190 
G01 X23.9650 Y26.2206 
G01 X23.8455 Y26.3004 
G01 X23.7128 Y26.3554 
G01 X23.5718 Y26.3834 
G01 X23.4282 Y26.3834 
G01 X23.2872 Y26.3554 
G01 X23.1545 Y26.3004 
G01 X23.0350 Y26.2206 
G01 X22.9334 Y26.1190 
G01 X22.8536 Y25.9995 
G01 X22.7986 Y25.8668 
G01 X22.7706 Y25.7258 
G00 Z2.4000 
G00 X12.9246 Y76.6240 
G01 Z-0.1000 F50.00 
G01 X12.9246 Y76.3760 F100.00 
G01 X12.9634 Y76.1311 
G01 X13.0400 Y75.8953 
G01 X13.1526 Y75.6743 
G01 X13.2984 Y75.4737 
G01 X16.7983 Y71.9737 
G01 X16.9737 Y71.7983 
G01 X17.1743 Y71.6526 
G01 X17.3953 Y71.5400 
G01 X17.6311 Y71.4634 
G01 X17.8760 Y71.4246 
G01 X20.2340 Y71.4246 
G01 X20.4789 Y71.4634 
G01 X20.7147 Y71.5400 
G01 X20.9357 Y71.6526 
G01 X21.1363 Y71.7983 
G01 X29.7883 Y80.4504 
G01 X34.7626 Y85.4246 
G01 X41.9240 Y85.4246 
G01 X42.1689 Y85.4634 
G01 X42.4047 Y85.5400 
G01 X42.6257 Y85.6526 
G01 X42.8263 Y85.7983 
G01 X43.0016 Y85.9737 
G01 X43.1474 Y86.1743 
G01 X43.2600 Y86.3953 
G01 X43.3366 Y86.6311 
G01 X43.3754 Y86.8760 
G01 X43.3754 Y87.1240 
G01 X43.3366 Y87.3689 
G01 X43.2600 Y87.6047 
G01 X43.1474 Y87.8257 
G01 X43.0016 Y88.0263 
G01 X42.8263 Y88.2016 
G01 X42.6257 Y88.3474 
G01 X42.4047 Y88.4600 
G01 X42.1689 Y88.5366 
G01 X41.9240 Y88.5754 
G01 X32.1526 Y88.5754 
G01 X30.3374 Y90.3906 
G01 X30.3374 Y92.4869 
G01 X30.3614 Y92.6075 
G01 X30.3614 Y92.7725 
G01 X30.3292 Y92.9343 
G01 X30.3116 Y92.9767 
G01 X30.2986 Y93.0589 
G01 X30.2220 Y93.2947 
G01 X30.1094 Y93.5157 
G01 X29.9636 Y93.7163 
G01 X29.7883 Y93.8916 
G01 X29.5877 Y94.0374 
G01 X29.3667 Y94.1500 
G01 X29.1309 Y94.2266 
G01 X28.8860 Y94.2654 
G01 X28.6380 Y94.2654 
G01 X28.3931 Y94.2266 
G01 X28.1573 Y94.1500 
G01 X27.9363 Y94.0374 
G01 X27.7357 Y93.8916 
G01 X27.5603 Y93.7163 
G01 X27.4146 Y93.5157 
G01 X27.3020 Y93.2947 
G01 X27.2254 Y93.0589 
G01 X27.2124 Y92.9767 
G01 X27.1948 Y92.9343 
G01 X27.1626 Y92.7725 
G01 X27.1626 Y92.6075 
G01 X27.1866 Y92.4869 
G01 X27.1866 Y89.6140 
G01 X27.2254 Y89.3691 
G01 X27.3020 Y89.1333 
G01 X27.4146 Y88.9123 
G01 X27.5603 Y88.7117 
G01 X30.4737 Y85.7983 
G01 X30.5934 Y85.7114 
G01 X27.5603 Y82.6783 
G01 X19.4574 Y74.5754 
G01 X18.6526 Y74.5754 
G01 X16.0754 Y77.1526 
G01 X16.0754 Y78.1240 
G01 X16.0366 Y78.3689 
G01 X15.9600 Y78.6047 
G01 X15.8474 Y78.8257 
G01 X15.7016 Y79.0263 
G01 X11.0263 Y83.7016 
G01 X10.8257 Y83.8474 
G01 X10.6047 Y83.9600 
G01 X10.3689 Y84.0366 
G01 X10.1240 Y84.0754 
G01 X7.8860 Y84.0754 
G01 X7.6411 Y84.0366 
G01 X7.4053 Y83.9600 
G01 X7.1843 Y83.8474 
G01 X6.9837 Y83.7016 
G01 X6.8083 Y83.5263 
G01 X6.6626 Y83.3257 
G01 X6.5500 Y83.1047 
G01 X6.4734 Y82.8689 
G01 X6.4346 Y82.6240 
G01 X6.4346 Y82.3760 
G01 X6.4734 Y82.1311 
G01 X6.5500 Y81.8953 
G01 X6.6626 Y81.6743 
G01 X6.8083 Y81.4737 
G01 X6.9837 Y81.2983 
G01 X7.1843 Y81.1526 
G01 X7.4053 Y81.0400 
G01 X7.6411 Y80.9634 
G01 X7.8860 Y80.9246 
G01 X9.3474 Y80.9246 
G01 X12.9246 Y77.3474 
G01 X12.9246 Y76.6240 
G00 Z2.4000 
G00 X25.6822 Y59.7132 
G01 Z-0.1000 F50.00 
G01 X27.0822 Y61.1132 F100.00 
G01 X27.3868 Y61.4178 
G01 X27.7847 Y61.5826 
G01 X32.7160 Y61.5826 
G01 X32.7717 Y61.6057 
G01 X32.8143 Y61.6483 
G01 X32.8374 Y61.7040 
G01 X32.8374 Y64.0042 
G01 X32.8270 Y64.0293 
G01 X32.8270 Y64.9527 
G01 X33.4673 Y65.5930 
G01 X34.3727 Y65.5930 
G01 X35.0130 Y64.9527 
G01 X35.0130 Y64.0293 
G01 X35.0026 Y64.0042 
G01 X35.0026 Y60.9958 
G01 X35.0130 Y60.9707 
G01 X35.0130 Y60.0473 
G01 X34.3727 Y59.4070 
G01 X33.4493 Y59.4070 
G01 X33.4242 Y59.4174 
G01 X28.4811 Y59.4174 
G01 X28.4253 Y59.3943 
G01 X28.4143 Y59.3833 
G01 X27.7523 Y58.7213 
G01 X27.7207 Y58.6897 
G01 X27.7097 Y58.6787 
G01 X27.6866 Y58.6229 
G01 X27.6866 Y57.1299 
G01 X27.5212 Y56.7305 
G01 X27.2155 Y56.4248 
G01 X26.8161 Y56.2594 
G01 X26.3839 Y56.2594 
G01 X25.9845 Y56.4248 
G01 X25.6788 Y56.7305 
G01 X25.5134 Y57.1299 
G01 X25.5134 Y58.8701 
G01 X25.5174 Y58.8798 
G01 X25.5174 Y59.3153 
G01 X25.6822 Y59.7132 
G00 Z2.4000 
G00 X34.6558 Y64.1952 
G01 Z-0.1000 F50.00 
G01 X34.6558 Y64.8048 F100.00 
G01 X34.2248 Y65.2358 
G01 X33.6152 Y65.2358 
G01 X33.1842 Y64.8048 
G01 X33.1842 Y64.1952 
G01 X33.1946 Y64.1848 
G01 X33.1946 Y61.2254 
G01 X27.9286 Y61.2254 
G01 X27.7884 Y61.1975 
G01 X27.6564 Y61.1428 
G01 X27.5376 Y61.0635 
G01 X27.4365 Y60.9624 
G01 X26.0365 Y59.5624 
G01 X25.9572 Y59.4436 
G01 X25.9025 Y59.3116 
G01 X25.8746 Y59.1714 
G01 X25.8746 Y58.7459 
G01 X25.8706 Y58.7258 
G01 X25.8706 Y57.2742 
G01 X25.8986 Y57.1332 
G01 X25.9536 Y57.0005 
G01 X26.0334 Y56.8810 
G01 X26.1350 Y56.7794 
G01 X26.2545 Y56.6996 
G01 X26.3872 Y56.6446 
G01 X26.5282 Y56.6166 
G01 X26.6718 Y56.6166 
G01 X26.8128 Y56.6446 
G01 X26.9455 Y56.6996 
G01 X27.0650 Y56.7794 
G01 X27.1666 Y56.8810 
G01 X27.2464 Y57.0005 
G01 X27.3014 Y57.1332 
G01 X27.3294 Y57.2742 
G01 X27.3294 Y58.7258 
G01 X27.3254 Y58.7459 
G01 X27.3254 Y58.7995 
G01 X28.3005 Y59.7746 
G01 X33.6048 Y59.7746 
G01 X33.6152 Y59.7642 
G01 X34.2248 Y59.7642 
G01 X34.6558 Y60.1952 
G01 X34.6558 Y60.8048 
G01 X34.6454 Y60.8152 
G01 X34.6454 Y64.1848 
G01 X34.6558 Y64.1952 
G00 Z2.4000 
G00 X59.3968 Y83.3470 
G01 Z-0.1000 F50.00 
G01 X59.4769 Y83.4670 F100.00 
G01 X59.5790 Y83.5691 
G01 X59.6990 Y83.6492 
G01 X59.8323 Y83.7044 
G01 X59.9738 Y83.7326 
G01 X60.3746 Y83.7326 
G01 X60.3746 Y83.6294 
G01 X59.9840 Y83.6294 
G01 X59.8624 Y83.6052 
G01 X59.7479 Y83.5578 
G01 X59.6448 Y83.4889 
G01 X59.5571 Y83.4012 
G01 X59.4882 Y83.2981 
G01 X59.4581 Y83.2254 
G01 X59.3464 Y83.2254 
G01 X59.3968 Y83.3470 
G00 Z2.4000 
G00 X61.7231 Y82.5330 
G01 Z-0.1000 F50.00 
G01 X61.6210 Y82.4309 F100.00 
G01 X61.5010 Y82.3508 
G01 X61.3677 Y82.2955 
G01 X61.2262 Y82.2674 
G01 X60.8254 Y82.2674 
G01 X60.8254 Y82.3706 
G01 X61.2160 Y82.3706 
G01 X61.3376 Y82.3948 
G01 X61.4521 Y82.4422 
G01 X61.5552 Y82.5111 
G01 X61.6429 Y82.5988 
G01 X61.7118 Y82.7019 
G01 X61.7419 Y82.7746 
G01 X61.8536 Y82.7746 
G01 X61.8032 Y82.6530 
G01 X61.7231 Y82.5330 
G00 Z2.4000 
G00 X59.9738 Y82.2674 
G01 Z-0.1000 F50.00 
G01 X59.8323 Y82.2955 F100.00 
G01 X59.6990 Y82.3508 
G01 X59.5790 Y82.4309 
G01 X59.4769 Y82.5330 
G01 X59.3968 Y82.6530 
G01 X59.3464 Y82.7746 
G01 X59.4581 Y82.7746 
G01 X59.4882 Y82.7019 
G01 X59.5571 Y82.5988 
G01 X59.6448 Y82.5111 
G01 X59.7479 Y82.4422 
G01 X59.8624 Y82.3948 
G01 X59.9840 Y82.3706 
G01 X60.3746 Y82.3706 
G01 X60.3746 Y82.2674 
G01 X59.9738 Y82.2674 
G00 Z2.4000 
G00 X61.2262 Y83.7326 
G01 Z-0.1000 F50.00 
G01 X61.3677 Y83.7044 F100.00 
G01 X61.5010 Y83.6492 
G01 X61.6210 Y83.5691 
G01 X61.7231 Y83.4670 
G01 X61.8032 Y83.3470 
G01 X61.8536 Y83.2254 
G01 X61.7419 Y83.2254 
G01 X61.7118 Y83.2981 
G01 X61.6429 Y83.4012 
G01 X61.5552 Y83.4889 
G01 X61.4521 Y83.5578 
G01 X61.3376 Y83.6052 
G01 X61.2160 Y83.6294 
G01 X60.8254 Y83.6294 
G01 X60.8254 Y83.7326 
G01 X61.2262 Y83.7326 
G00 Z2.4000 
G00 X20.6571 Y23.5454 
G01 Z-0.1000 F50.00 
G01 X20.5056 Y23.6082 F100.00 
G01 X20.3693 Y23.6993 
G01 X20.2533 Y23.8153 
G01 X20.1622 Y23.9516 
G01 X20.0994 Y24.1031 
G01 X20.0674 Y24.2640 
G01 X20.0674 Y24.7722 
G01 X20.1706 Y24.7722 
G01 X20.1706 Y24.2742 
G01 X20.1986 Y24.1332 
G01 X20.2536 Y24.0005 
G01 X20.3334 Y23.8810 
G01 X20.4350 Y23.7794 
G01 X20.5545 Y23.6996 
G01 X20.6722 Y23.6509 
G01 X20.6722 Y23.5424 
G01 X20.6571 Y23.5454 
G00 Z2.4000 
G00 X21.4307 Y26.3007 
G01 Z-0.1000 F50.00 
G01 X21.5467 Y26.1847 F100.00 
G01 X21.6378 Y26.0484 
G01 X21.7006 Y25.8969 
G01 X21.7326 Y25.7360 
G01 X21.7326 Y25.2278 
G01 X21.6294 Y25.2278 
G01 X21.6294 Y25.7258 
G01 X21.6014 Y25.8668 
G01 X21.5464 Y25.9995 
G01 X21.4666 Y26.1190 
G01 X21.3650 Y26.2206 
G01 X21.2455 Y26.3004 
G01 X21.1278 Y26.3491 
G01 X21.1278 Y26.4576 
G01 X21.1428 Y26.4546 
G01 X21.2944 Y26.3918 
G01 X21.4307 Y26.3007 
G00 Z2.4000 
G00 X21.7326 Y24.2640 
G01 Z-0.1000 F50.00 
G01 X21.7006 Y24.1031 F100.00 
G01 X21.6378 Y23.9516 
G01 X21.5467 Y23.8153 
G01 X21.4307 Y23.6993 
G01 X21.2944 Y23.6082 
G01 X21.1428 Y23.5454 
G01 X21.1278 Y23.5424 
G01 X21.1278 Y23.6509 
G01 X21.2455 Y23.6996 
G01 X21.3650 Y23.7794 
G01 X21.4666 Y23.8810 
G01 X21.5464 Y24.0005 
G01 X21.6014 Y24.1332 
G01 X21.6294 Y24.2742 
G01 X21.6294 Y24.7722 
G01 X21.7326 Y24.7722 
G01 X21.7326 Y24.2640 
G00 Z2.4000 
G00 X20.0674 Y25.7360 
G01 Z-0.1000 F50.00 
G01 X20.0994 Y25.8969 F100.00 
G01 X20.1622 Y26.0484 
G01 X20.2533 Y26.1847 
G01 X20.3693 Y26.3007 
G01 X20.5056 Y26.3918 
G01 X20.6571 Y26.4546 
G01 X20.6722 Y26.4576 
G01 X20.6722 Y26.3491 
G01 X20.5545 Y26.3004 
G01 X20.4350 Y26.2206 
G01 X20.3334 Y26.1190 
G01 X20.2536 Y25.9995 
G01 X20.1986 Y25.8668 
G01 X20.1706 Y25.7258 
G01 X20.1706 Y25.2278 
G01 X20.0674 Y25.2278 
